!!!COM: Haydn, Franz Joseph
!!!OPR: Symphony in E-flat Major
!!!OTL: Affettuoso 
!!!OMV: 1
!!!SCT: H I:91
!!!SCA: Thematisch-bibliographisches Werkevererzeichnis (A. van Hoboken)
!!!YOR: Dover Edition
!!!EED: Frances Bennion
!!!ENC: Frances Bennion
!!!CDT: 1732/3/31/-1809/5/31/
!!!OCY: Österreich
!!!YEC: Copyright (c) 1994, 2000 Center for Computer Assisted Research in the Humanities
!!!YEM: Rights to all derivative editions reserved.
!!!YEM: Refer to licensing agreement for further details.
!!!YEN: United States of America
**kern	**kern	**kern	**kern	**kern	**kern	**kern	**kern	**kern	**kern	**kern	**kern
*k[b-e-a-]	*k[b-e-a-]	*k[b-e-a-]	*k[b-e-a-]	*k[b-e-a-]	*k[b-e-a-]	*k[b-e-a-]	*k[b-e-a-]	*k[]	*k[]	*k[b-e-a-]	*k[b-e-a-]
*E-:	*E-:	*E-:	*E-:	*E-:	*E-:	*E-:	*E-:	*E-:	*E-:	*E-:	*E-:
*clefF	*clefC3	*clefF4	*clefF4	*clefF	*clefF	*clefF4	*clefF4	*clefF	*clefF	*clefF	*clefF
*M3/4	*M3/4	*M3/4	*M3/4	*M3/4	*M3/4	*M3/4	*M3/4	*M3/4	*M3/4	*M3/4	*M3/4
*tb16	*tb16	*tb16	*tb16	*tb16	*tb16	*tb16	*tb16	*tb16	*tb16	*tb16	*tb16
=1	=1	=1	=1	=1	=1	=1	=1	=1	=1	=1	=1
4ee-	4B-	4E-	4E-	4ee-	4g	4E-	4E-	4cc	4e	4e- 4G	4G 4e-
4r	4r	4r	4r	4r	4r	4r	4r	4r	4r	4r	4r
4ff	4B-	4BB-	4BB-	4ff	4dd	4BB-	4BB-	4dd	4g	4f 4B-	4B- 4d
=2	=2	=2	=2	=2	=2	=2	=2	=2	=2	=2	=2
4gg	4B-	4E-	4E-	4gg	4ee-	4E-	4E-	4ee	4cc	4g 4B-	4G 4e-
2r	2r	2r	2r	4gg	4ee-	2r	2r	4ee	4cc	2r	2r
.	.	.	.	4bb-	4gg	.	.	4gg	4ee	.	.
=3	=3	=3	=3	=3	=3	=3	=3	=3	=3	=3	=3
4aa-	4c	4AA-	4AA-	4aa-	4ff	4AA-	4AA-	4ff	4dd	4a- 4c	4a- 4A-
4r	4r	4r	4r	4r	4r	4r	4r	4r	4r	4r	4r
4ff	4B-	4BB-	4BB-	4ff	4dd	4BB-	4BB-	4dd	4g	4f 4A-	4A- 4d
=4	=4	=4	=4	=4	=4	=4	=4	=4	=4	=4	=4
4ee-	4B-	4E-	4E-	4ee-	4ee-	4E-	4E-	4cc	4c	4e- 4G	4e- 4G
2r	2r	2r	2r	2r	2r	2r	2r	4cc	4c	2r	2r
.	.	.	.	.	.	.	.	4cc	4c	.	.
=5	=5	=5	=5	=5	=5	=5	=5	=5	=5	=5	=5
2.r	[2.G	[2.G	2.r	2.r	2.r	[2.e-	2.r	4cc	4c	2.r	8e-
.	.	.	.	.	.	.	.	.	.	.	8G
.	.	.	.	.	.	.	.	2r	2r	.	8e-
.	.	.	.	.	.	.	.	.	.	.	8G
.	.	.	.	.	.	.	.	.	.	.	8e-
.	.	.	.	.	.	.	.	.	.	.	8G
=6	=6	=6	=6	=6	=6	=6	=6	=6	=6	=6	=6
2bb	2G]	2G]	2.r	2.r	2.r	2.e-_	2.r	2.r	2.r	2b	8e-
.	.	.	.	.	.	.	.	.	.	.	8G
.	.	.	.	.	.	.	.	.	.	.	8e-
.	.	.	.	.	.	.	.	.	.	.	8G
4ccc	4A-	4A-	.	.	.	.	.	.	.	4cc	8e-
.	.	.	.	.	.	.	.	.	.	.	8A-
=7	=7	=7	=7	=7	=7	=7	=7	=7	=7	=7	=7
[4ff	[2.B-	[2.B-	2.r	2.r	2.r	4e-]	2.r	2.r	2.r	[4f	8e-
.	.	.	.	.	.	.	.	.	.	.	8B-
8ff]	.	.	.	.	.	4d	.	.	.	8f]	8d
8gg	.	.	.	.	.	.	.	.	.	8g	8B-
8aa-	.	.	.	.	.	4d	.	.	.	8a-	8d
8bb-	.	.	.	.	.	.	.	.	.	8b-	8B-
=8	=8	=8	=8	=8	=8	=8	=8	=8	=8	=8	=8
4gg	2B-]	2B-]	2.r	2.r	2.r	4e-	2.r	2.r	2.r	4g	8e-
.	.	.	.	.	.	.	.	.	.	.	8B-
4ff	.	.	.	.	.	4d	.	.	.	4f	8d
.	.	.	.	.	.	.	.	.	.	.	8B-
4r	4A-	4A-	.	.	.	4r	.	.	.	4r	8d
.	.	.	.	.	.	.	.	.	.	.	8A-
=9	=9	=9	=9	=9	=9	=9	=9	=9	=9	=9	=9
4ee-	4G	4G	2.r	2.r	2.r	2e-	2.r	2.r	2.r	4e-	8G
.	.	.	.	.	.	.	.	.	.	.	8e-
4ff	4A-	4A-	.	.	.	.	.	.	.	4f	8A-
.	.	.	.	.	.	.	.	.	.	.	8e-
4gg	4B-	4B-	.	.	.	4d-	.	.	.	4g	8B-
.	.	.	.	.	.	.	.	.	.	.	8e-
=10	=10	=10	=10	=10	=10	=10	=10	=10	=10	=10	=10
8.aa-	8c	8c	2.r	2.r	2.r	8c	2.r	2.r	2.r	8.a-	8c
.	8B-	8B-	.	.	.	8B-	.	.	.	.	8B-
16bb-	.	.	.	.	.	.	.	.	.	16b-	.
8ccc	4A-	4A-	.	.	.	4A-	.	.	.	8cc	8A-
8ddd	.	.	.	.	.	.	.	.	.	8dd	8f
4eee-	4G	4G	.	.	.	4G	.	.	.	4ee-	8G
.	.	.	.	.	.	.	.	.	.	.	8e-
=11	=11	=11	=11	=11	=11	=11	=11	=11	=11	=11	=11
8ccc	4A-	4A-	2.r	2.r	2.r	4A-	2.r	2.r	2.r	8cc	8cc
8aa-	.	.	.	.	.	.	.	.	.	8a-	8a-
8gg	4B-	4B-	.	.	.	4B-	.	.	.	8g	8g
8bb-	.	.	.	.	.	.	.	.	.	8b-	8b-
8aa-	4B-	4BB-	.	.	.	4BB-	.	.	.	8a-	8a-
8ff	.	.	.	.	.	.	.	.	.	8f	8f
=12	=12	=12	=12	=12	=12	=12	=12	=12	=12	=12	=12
4ee-	4B-	4E-	4E-	4ee-	4g	4E-	4E-	4cc	4e	4G 4ee- 4e-	4ee- 4G 4e-
4r	4r	4r	4r	4r	4r	4r	4r	4r	4r	4r	4r
4ff	4B-	4BB-	4BB-	4ff	4dd	4BB-	4BB-	4dd	4g	4b- 4ff 4d	4d 4ff 4b-
=13	=13	=13	=13	=13	=13	=13	=13	=13	=13	=13	=13
4gg	4B-	4E-	4E-	4gg	4ee-	4E-	4E-	4ee	4cc	4gg 4b- 4e-	4e- 4gg 4b-
2r	2r	2r	2r	4gg	4ee-	2r	2r	4ee	4cc	2r	2r
.	.	.	.	4gg	4ee-	.	.	4ee	4cc	.	.
=14	=14	=14	=14	=14	=14	=14	=14	=14	=14	=14	=14
4gg	4e-	4E-	4E-	4gg	4ee-	4E-	4E-	4ee	4cc	4gg 4b- 4e-	4gg 4e- 4b-
4r	4r	4r	4r	4r	4r	4r	4r	2r	2r	4r	4r
4aa	4f	4FF	4FF	4aa	4ee-	4F	4F	.	.	4cc 4aa 4e-	4f 4ee-
=15	=15	=15	=15	=15	=15	=15	=15	=15	=15	=15	=15
4bb-	4B-	4BB-	4BB-	4bb-	4dd	4BB-	4BB-	4g	4G	4bb- 4b- 4d	4dd 4B- 4f
2r	2r	2r	2r	2r	2r	2r	2r	4g	4G	2r	2r
.	.	.	.	.	.	.	.	4g	4G	.	.
=16	=16	=16	=16	=16	=16	=16	=16	=16	=16	=16	=16
2aa-	8d	2d	2.r	2.r	2.r	[2.BB-	[2.BB-	[2.g	[2.G	2aa-	2f
.	8B-	.	.	.	.	.	.	.	.	.	.
.	8d	.	.	.	.	.	.	.	.	.	.
.	8B-	.	.	.	.	.	.	.	.	.	.
4gg	8e-	4e-	.	.	.	.	.	.	.	4gg	8g
.	8B-	.	.	.	.	.	.	.	.	.	8ee-
=17	=17	=17	=17	=17	=17	=17	=17	=17	=17	=17	=17
4gg	8a-	2a-	2.r	2.r	2.r	2.BB-_	2.BB-_	2.g_	2.G_	4gg	2cc
.	8B-	.	.	.	.	.	.	.	.	.	.
4ff	8a-	.	.	.	.	.	.	.	.	4ff	.
.	8B-	.	.	.	.	.	.	.	.	.	.
4ee-	8g	4g	.	.	.	.	.	.	.	4ee-	4b-
.	8B-	.	.	.	.	.	.	.	.	.	.
=18	=18	=18	=18	=18	=18	=18	=18	=18	=18	=18	=18
4ee-	8f	2f	2.r	2.r	2.r	2.BB-_	2.BB-_	2.g_	2.G_	4ee-	2a-
.	8B-	.	.	.	.	.	.	.	.	.	.
4dd	8f	.	.	.	.	.	.	.	.	4dd	.
.	8B-	.	.	.	.	.	.	.	.	.	.
4cc	8e-	4e-	.	.	.	.	.	.	.	4cc	4g
.	8B-	.	.	.	.	.	.	.	.	.	.
=19	=19	=19	=19	=19	=19	=19	=19	=19	=19	=19	=19
4cc	8d	2d	2.r	2.r	2.r	2.BB-]	2.BB-]	2.g_	2.G_	4cc	2f
.	8B-	.	.	.	.	.	.	.	.	.	.
4b-	8d	.	.	.	.	.	.	.	.	4b-	.
.	8B-	.	.	.	.	.	.	.	.	.	.
4a	8e-	4e-	.	.	.	.	.	.	.	4a	4g-
.	8c	.	.	.	.	.	.	.	.	.	.
=20	=20	=20	=20	=20	=20	=20	=20	=20	=20	=20	=20
2.a-	2.d	2.d	2.r	2.r	2.r	2.BBB-	2.BBB-	2.g]	2.G]	2.a-	2.f
=21	=21	=21	=21	=21	=21	=21	=21	=21	=21	=21	=21
2.r	2.e-	2.e-	2.e-	2.r	2.r	2.r	2.r	2.r	2.r	4g	4g
.	.	.	.	.	.	.	.	.	.	4a-	4a-
.	.	.	.	.	.	.	.	.	.	4a	4a
=22	=22	=22	=22	=22	=22	=22	=22	=22	=22	=22	=22
2.r	4d	4d	4d	2.r	2.r	2.r	2.r	2.r	2.r	2.b-	2.b-
.	4c	4c	4c	.	.	.	.	.	.	.	.
.	4B-	4B-	4B-	.	.	.	.	.	.	.	.
=23	=23	=23	=23	=23	=23	=23	=23	=23	=23	=23	=23
2.r	2.a-	2.A-	2.A-	2.r	2.r	2.r	2.r	2.r	2.r	4cc	4cc
.	.	.	.	.	.	.	.	.	.	4dd-	4dd-
.	.	.	.	.	.	.	.	.	.	4dd	4dd
=24	=24	=24	=24	=24	=24	=24	=24	=24	=24	=24	=24
2.r	4g	4G	4G	2.r	2.r	2.r	2.r	2.r	2.r	2.ee-	2.ee-
.	4f	4F	4F	.	.	.	.	.	.	.	.
.	4e-	4E-	4E-	.	.	.	.	.	.	.	.
=25	=25	=25	=25	=25	=25	=25	=25	=25	=25	=25	=25
2.r	2d	2D	2D	2.r	2.r	2.r	2.r	2.r	2.r	4ff	4ff
.	.	.	.	.	.	.	.	.	.	4gg-	4gg-
.	4d-	4D-	4D-	.	.	.	.	.	.	4gg	4gg
=26	=26	=26	=26	=26	=26	=26	=26	=26	=26	=26	=26
2.r	4c	4C	4C	2.r	2.r	2.r	2.r	2.r	2.r	4aa-	4aa-
.	4B-	4BB-	4BB-	.	.	.	.	.	.	4bb-	4bb-
.	4A-	4AA-	4AA-	.	.	.	.	.	.	4ccc	4ccc
=27	=27	=27	=27	=27	=27	=27	=27	=27	=27	=27	=27
2.r	4G	4GG	4GG	2.r	2.r	2.r	2.r	2.r	2.r	4bb-	4bb-
.	4D	4DD	4DD	.	.	.	.	.	.	8aa-	8aa-
.	.	.	.	.	.	.	.	.	.	8ff	8ff
.	4E-	4EE-	4EE-	.	.	.	.	.	.	8gg	8gg
.	.	.	.	.	.	.	.	.	.	8ee-	8ee-
=28	=28	=28	=28	=28	=28	=28	=28	=28	=28	=28	=28
2.r	4B-	4BB-	4BB-	2.r	2.r	2.r	2.r	2.r	2.r	4b-	4b-
.	2r	2r	2r	.	.	.	.	.	.	2r	2r
=29	=29	=29	=29	=29	=29	=29	=29	=29	=29	=29	=29
2.r	4G	4GG	4GG	2.r	2.r	2.r	2.r	2.r	2.r	2.ee-	2.ee-
.	4A-	4AA-	4AA-	.	.	.	.	.	.	.	.
.	4A	4AA	4AA	.	.	.	.	.	.	.	.
=30	=30	=30	=30	=30	=30	=30	=30	=30	=30	=30	=30
2.r	2.B-	2.BB-	2.BB-	2.r	2.r	2.r	2.r	2.r	2.r	4dd	4dd
.	.	.	.	.	.	.	.	.	.	4cc	4cc
.	.	.	.	.	.	.	.	.	.	4b-	4b-
=31	=31	=31	=31	=31	=31	=31	=31	=31	=31	=31	=31
2.r	4c	4C	4C	2.r	2.r	2.r	2.r	2.r	2.r	2.a-	2.a-
.	4d-	4D-	4D-	.	.	.	.	.	.	.	.
.	4d	4D	4D	.	.	.	.	.	.	.	.
=32	=32	=32	=32	=32	=32	=32	=32	=32	=32	=32	=32
2.r	2.e-	2.E-	2.E-	2.r	2.r	2.r	2.r	2.r	2.r	4g	4g
.	.	.	.	.	.	.	.	.	.	4f	4f
.	.	.	.	.	.	.	.	.	.	4e-	4e-
=33	=33	=33	=33	=33	=33	=33	=33	=33	=33	=33	=33
2.r	4f	4F	4F	2.r	2.r	2.r	2.r	2.r	2.r	2d	2d
.	4g-	4G-	4G-	.	.	.	.	.	.	.	.
.	4g	4G	4G	.	.	.	.	.	.	4d-	4d-
=34	=34	=34	=34	=34	=34	=34	=34	=34	=34	=34	=34
2.r	4a-	4A-	4A-	2.r	2.r	2.r	2.r	2.r	2.r	4c	4c
.	4d	4D	4D	.	.	.	.	.	.	4cc	4a-
.	4e-	4E-	4E-	.	.	.	.	.	.	4b-	4g
=35	=35	=35	=35	=35	=35	=35	=35	=35	=35	=35	=35
2.r	4a-	4A-	4A-	2.r	2.r	2.r	2.r	2.r	2.r	4a-	4f
.	4b-	4B-	4B-	.	.	.	.	.	.	4g	4e-
.	4B-	4BB-	4BB-	.	.	.	.	.	.	4f	4d
=36	=36	=36	=36	=36	=36	=36	=36	=36	=36	=36	=36
4ee-	4B-	2.E-	2.E-	4ee-	4g	4EE-	4EE-	4cc	4e	8e-	4G 4e-
.	.	.	.	.	.	.	.	.	.	8e-	.
4ee-	4B-	.	.	4ee-	4g	4E-	4E-	4cc	4e	8e-	4e- 4G
.	.	.	.	.	.	.	.	.	.	16d	.
.	.	.	.	.	.	.	.	.	.	16e-	.
4ee-	4B-	.	.	4ee-	4g	4E-	4E-	4cc	4e	8g	4e- 4G
.	.	.	.	.	.	.	.	.	.	8e-	.
=37	=37	=37	=37	=37	=37	=37	=37	=37	=37	=37	=37
4dd	2.f 2.B-	2.E-	2.E-	4dd	4f	2.E-	2.E-	2.dd	2.g	8d	2.A- 2.d
.	.	.	.	.	.	.	.	.	.	8a-	.
4ff	.	.	.	2aa-	2dd	.	.	.	.	8a-	.
.	.	.	.	.	.	.	.	.	.	16g	.
.	.	.	.	.	.	.	.	.	.	16a-	.
4aa-	.	.	.	.	.	.	.	.	.	8cc	.
.	.	.	.	.	.	.	.	.	.	8a-	.
=38	=38	=38	=38	=38	=38	=38	=38	=38	=38	=38	=38
4gg	4g 4B-	2.E-	2.E-	4gg	4ee-	4EE-	4EE-	4ee	4cc	8g	4G 4e-
.	.	.	.	.	.	.	.	.	.	8ee-	.
4bb-	4g 4B-	.	.	4gg	4b-	4E-	4E-	4ee	4cc	8ee-	4b- 4g
.	.	.	.	.	.	.	.	.	.	16dd	.
.	.	.	.	.	.	.	.	.	.	16ee-	.
4gg	4g 4B-	.	.	4gg	4ee-	4E-	4E-	4ee	4cc	8gg	4g 4b-
.	.	.	.	.	.	.	.	.	.	8ee-	.
=39	=39	=39	=39	=39	=39	=39	=39	=39	=39	=39	=39
2aa-	2.f 2.B-	2.E-	2.E-	4ff	2.dd	2.E-	2.E-	2.dd	2.g	8dd	2.f 2.dd
.	.	.	.	.	.	.	.	.	.	8aa-	.
.	.	.	.	4ccc	.	.	.	.	.	8aa-	.
.	.	.	.	.	.	.	.	.	.	16gg	.
.	.	.	.	.	.	.	.	.	.	16aa-	.
4ff	.	.	.	4aa-	.	.	.	.	.	8ccc	.
.	.	.	.	.	.	.	.	.	.	8aa-	.
=40	=40	=40	=40	=40	=40	=40	=40	=40	=40	=40	=40
2.gg	8e-	8e-	8e-	4gg	4ee-	8e-	8e-	4ee	4cc	4gg	8ee-
.	8e-	8e-	8e-	.	.	8e-	8e-	.	.	.	8ee-
.	8e-	8e-	8e-	4bb-	4b-	8e-	8e-	4ee	4cc	4bb- 4b-	8ee-
.	16d	16d	16d	.	.	16d	16d	.	.	.	16dd
.	16e-	16e-	16e-	.	.	16e-	16e-	.	.	.	16ee-
.	8g	8g	8g	4bb-	4ee-	8g	8g	4ee	4cc	4b- 4bb-	8gg
.	8e-	8e-	8e-	.	.	8e-	8e-	.	.	.	8ee-
=41	=41	=41	=41	=41	=41	=41	=41	=41	=41	=41	=41
2.ff	8d	8d	8d	2.bb-	2.dd	8d	8d	2.dd	2.g	2.bb- 2.b-	8dd
.	8A-	8A-	8A-	.	.	8A-	8A-	.	.	.	8a-
.	8A-	8A-	8A-	.	.	8A-	8A-	.	.	.	8a-
.	16G	16G	16G	.	.	16G	16G	.	.	.	16g
.	16A-	16A-	16A-	.	.	16A-	16A-	.	.	.	16a-
.	8f	8F	8F	.	.	8F	8F	.	.	.	8f
.	8a-	8A-	8A-	.	.	8A-	8A-	.	.	.	8a-
=42	=42	=42	=42	=42	=42	=42	=42	=42	=42	=42	=42
2.gg	8g	8G	8G	4bb-	4ee-	8G	8G	4ee	4cc	4bb- 4b-	8g
.	8e-	8E-	8E-	.	.	8E-	8E-	.	.	.	8e-
.	8e-	8E-	8E-	4bb-	4b-	8E-	8E-	4ee	4cc	4bb- 4b-	8e-
.	16d	16D	16D	.	.	16D	16D	.	.	.	16d
.	16e-	16E-	16E-	.	.	16E-	16E-	.	.	.	16e-
.	8g	8G	8G	4bb-	4ee-	8G	8G	4ee	4cc	4bb- 4b-	8g
.	8e-	8E-	8E-	.	.	8E-	8E-	.	.	.	8e-
=43	=43	=43	=43	=43	=43	=43	=43	=43	=43	=43	=43
2.ff	8d	8D	8D	2.bb-	2.dd	8D	8D	2.dd	2.g	2.bb- 2.b-	8d
.	8A-	8AA-	8AA-	.	.	8AA-	8AA-	.	.	.	8A-
.	8A-	8AA-	8AA-	.	.	8AA-	8AA-	.	.	.	8A-
.	16G	16GG	16GG	.	.	16GG	16GG	.	.	.	16G
.	16A-	16AA-	16AA-	.	.	16AA-	16AA-	.	.	.	16A-
.	8f	8F	8F	.	.	8F	8F	.	.	.	8f
.	8A-	8AA-	8AA-	.	.	8AA-	8AA-	.	.	.	8A-
=44	=44	=44	=44	=44	=44	=44	=44	=44	=44	=44	=44
4gg	8G	8GG	8GG	4bb-	4ee-	8GG	8GG	4cc	4e	4bb- 4b-	8G
.	8B-	8BB-	8BB-	.	.	8BB-	8BB-	.	.	.	8B-
4bb-	8e-	8E-	8E-	4bb-	4b-	8E-	8E-	2r	2r	4bb- 4b-	8e-
.	8g	8G	8G	.	.	8G	8G	.	.	.	8g
4bb-	8f	8F	8F	4bb-	4b-	8F	8F	.	.	4bb- 4b-	8a-
.	8e-	8E-	8E-	.	.	8E-	8E-	.	.	.	8b-
=45	=45	=45	=45	=45	=45	=45	=45	=45	=45	=45	=45
4bb-	8A-	8AA-	8AA-	4bb-	2.cc	8AA-	8AA-	4cc	4c	4cc 4bb-	2cc
.	8c	8C	8C	.	.	8C	8C	.	.	.	.
8aa-	8f	8F	8F	8aa-	.	8F	8F	2r	2r	8aa-	.
8gg	8g	8G	8G	8gg	.	8G	8G	.	.	8gg	.
8ff	8a-	8A-	8A-	8ff	.	8A-	8A-	.	.	8ff	4cc
8ee-	8cc	8c	8c	8ee-	.	8c	8c	.	.	8ee-	.
=46	=46	=46	=46	=46	=46	=46	=46	=46	=46	=46	=46
4dd	8b-	8B-	8B-	4dd	4f	8B-	8B-	4dd	4g	4f 4dd	4f 4dd
.	8a-	8A-	8A-	.	.	8A-	8A-	.	.	.	.
4ee-	8g	8G	8G	4ee-	4b-	8G	8G	4ee	4cc	4ee- 4e-	4ee- 4e-
.	8e-	8E-	8E-	.	.	8E-	8E-	.	.	.	.
4ff	8d	8D	8D	4ff	4b-	8D	8D	4dd	4g	4ff 4d 4b-	4ff 4d 4b-
.	8B-	8BB-	8BB-	.	.	8BB-	8BB-	.	.	.	.
=47	=47	=47	=47	=47	=47	=47	=47	=47	=47	=47	=47
4gg	8e-	8E-	8E-	4gg	4.b-	8E-	8E-	4ee	4cc	4gg 4e- 4b-	4gg 4e- 4b-
.	8B-	8BB-	8BB-	.	.	8BB-	8BB-	.	.	.	.
8ff	8d	8D	8D	8ff	.	8D	8D	8dd	8g	4d 4ff 4b-	4d 4b- 4ff
8b-	8B-	8BB-	8BB-	8b-	8b-	8BB-	8BB-	8dd	8g	.	.
8b-	8d	8D	8D	8b-	8b-	8D	8D	8dd	8g	4r	4r
8b-	8B-	8BB-	8BB-	8b-	8b-	8BB-	8BB-	8dd	8g	.	.
=48	=48	=48	=48	=48	=48	=48	=48	=48	=48	=48	=48
4aa-	8f	8F	8F	4aa-	4dd	8F	8F	4dd	4g	4aa- 4b- 4d	4aa- 4b- 4d
.	8B-	8BB-	8BB-	.	.	8BB-	8BB-	.	.	.	.
8gg	8e-	8E-	8E-	8gg	8ee-	8E-	8E-	8ee	8cc	4gg 4e- 4b-	4gg 4b- 4e-
8ee-	8e-	8E-	8E-	8ee-	8ee-	8E-	8E-	8ee	8cc	.	.
8ee-	8g	8G	8G	8ee-	8ee-	8G	8G	8ee	8cc	4r	4r
8ee-	8b-	8B-	8B-	8ee-	8ee-	8B-	8B-	8ee	8cc	.	.
=49	=49	=49	=49	=49	=49	=49	=49	=49	=49	=49	=49
4.ccc	8ee-	8e-	8e-	[2.ee-	[2.ee-	8e-	8e-	[2.cc	[2.cc	4.ccc	4.aa-
.	8e-	8E-	8E-	.	.	8E-	8E-	.	.	.	.
.	8ee-	8e-	8e-	.	.	8e-	8e-	.	.	.	.
8ddd	8e-	8E-	8E-	.	.	8E-	8E-	.	.	8ddd	8bb-
8eee-	8ee-	8e-	8e-	.	.	8e-	8e-	.	.	8eee-	8ccc
8ccc	8e-	8E-	8E-	.	.	8E-	8E-	.	.	8ccc	8aa-
=50	=50	=50	=50	=50	=50	=50	=50	=50	=50	=50	=50
4bb-	8ee-	8e-	8e-	4ee-]	4ee-]	8e-	8e-	2.cc_	2.cc]	4bb-	4gg
.	8e-	8E-	8E-	.	.	8E-	8E-	.	.	.	.
4aa-	8ee-	8e-	8e-	2r	2r	8e-	8e-	.	.	4aa-	4ff
.	8e-	8E-	8E-	.	.	8E-	8E-	.	.	.	.
4gg	8ee-	8e-	8e-	.	.	8e-	8e-	.	.	4gg	4ee-
.	8e-	8E-	8E-	.	.	8E-	8E-	.	.	.	.
=51	=51	=51	=51	=51	=51	=51	=51	=51	=51	=51	=51
4.ff	4.cc	8e-	8e-	4.ff	4.cc	8e-	8e-	2.cc_	[2.c	4.ff	4.a-
.	.	8E-	8E-	.	.	8E-	8E-	.	.	.	.
.	.	8e-	8e-	.	.	8e-	8e-	.	.	.	.
8gg	8dd	8E-	8E-	8gg	8dd	8E-	8E-	.	.	8gg	8b-
8aa-	8ee-	8e-	8e-	8aa-	8ee-	8e-	8e-	.	.	8aa-	8cc
8ff	8cc	8E-	8E-	8ff	8cc	8E-	8E-	.	.	8ff	8a-
=52	=52	=52	=52	=52	=52	=52	=52	=52	=52	=52	=52
4ee-	4b-	8e-	8e-	4ee-	4b-	8e-	8e-	2.cc]	2.c]	4ee-	4g
.	.	8E-	8E-	.	.	8E-	8E-	.	.	.	.
4dd	4a-	8e-	8e-	4dd	4a-	8e-	8e-	.	.	4dd	4f
.	.	8E-	8E-	.	.	8E-	8E-	.	.	.	.
4ee-	4g	8e-	8e-	4ee-	4g	8e-	8e-	.	.	4ee-	4g
.	.	8E-	8E-	.	.	8E-	8E-	.	.	.	.
=53	=53	=53	=53	=53	=53	=53	=53	=53	=53	=53	=53
[2.bb-	8d	8D	8D	4ff	4f	8D	8D	2dd	2g	4d 4ff 4b-	4ff 4b- 4d
.	8B-	8BB-	8BB-	.	.	8BB-	8BB-	.	.	.	.
.	8f	8F	8F	4aa-	4dd	8F	8F	.	.	4aa- 4d 4b-	4d 4aa- 4b-
.	8B-	8BB-	8BB-	.	.	8BB-	8BB-	.	.	.	.
.	8e-	8E-	8E-	4gg	4ee-	8E-	8E-	4ee	4cc	4e- 4b- 4gg	4gg 4b- 4e-
.	8B-	8BB-	8BB-	.	.	8BB-	8BB-	.	.	.	.
=54	=54	=54	=54	=54	=54	=54	=54	=54	=54	=54	=54
2.bb-_	8d	8D	8D	4ff	4ff	8D	8D	2dd	2g	4d 4ff 4b-	4d 4ff 4b-
.	8B-	8BB-	8BB-	.	.	8BB-	8BB-	.	.	.	.
.	8f	8F	8F	4aa-	4dd	8F	8F	.	.	4aa- 4d 4b-	4aa- 4b- 4d
.	8B-	8BB-	8BB-	.	.	8BB-	8BB-	.	.	.	.
.	8e-	8E-	8E-	4gg	4ee-	8E-	8E-	4ee	4cc	4e- 4gg 4b-	4e- 4gg 4b-
.	8B-	8BB-	8BB-	.	.	8BB-	8BB-	.	.	.	.
=55	=55	=55	=55	=55	=55	=55	=55	=55	=55	=55	=55
2.bb-_	8d	8D	8D	4ff	4ff	8D	8D	2dd	2g	4d 4ff 4b-	4ff 4b- 4d
.	8B-	8BB-	8BB-	.	.	8BB-	8BB-	.	.	.	.
.	8f	8F	8F	4aa-	4dd	8F	8F	.	.	4aa- 4d 4b-	4aa- 4d 4b-
.	8B-	8BB-	8BB-	.	.	8BB-	8BB-	.	.	.	.
.	8e-	8E-	8E-	4gg	4ee-	8E-	8E-	4ee	4cc	4e- 4gg 4b-	4gg 4e- 4b-
.	8B-	8BB-	8BB-	.	.	8BB-	8BB-	.	.	.	.
=56	=56	=56	=56	=56	=56	=56	=56	=56	=56	=56	=56
4bb-]	4B-	4BB-	4BB-	4ff	4dd	4BB-	4BB-	4dd	4g	4d 4ff 4b-	4ff 4d 4b-
2r	4b-	4B-	4B-	4bb-	4b-	4B-	4B-	4dd	4g	4d 4bb- 4b-	4d 4bb- 4b-
.	4r	4r	4r	4r	4r	4r	4r	4r	4r	4r	4r
=57	=57	=57	=57	=57	=57	=57	=57	=57	=57	=57	=57
2.r	2.B-	2.B-	2.B-	2.r	2.r	2.r	2.r	2.r	2.r	2r	4d
.	.	.	.	.	.	.	.	.	.	.	4e-
.	.	.	.	.	.	.	.	.	.	4dd	4e
=58	=58	=58	=58	=58	=58	=58	=58	=58	=58	=58	=58
2.r	4A	4A	4A	2.r	2.r	2.r	2.r	2.r	2.r	8dd	2.f
.	.	.	.	.	.	.	.	.	.	8cc	.
.	4G	4G	4G	.	.	.	.	.	.	8cc	.
.	.	.	.	.	.	.	.	.	.	8b-	.
.	4F	4F	4F	.	.	.	.	.	.	8b-	.
.	.	.	.	.	.	.	.	.	.	8a	.
=59	=59	=59	=59	=59	=59	=59	=59	=59	=59	=59	=59
2.r	2E-	2.E-	2.E-	2.r	2.r	2.r	2.r	2.r	2.r	2r	4g-
.	.	.	.	.	.	.	.	.	.	.	4g
.	4e-	.	.	.	.	.	.	.	.	4gg	4a
=60	=60	=60	=60	=60	=60	=60	=60	=60	=60	=60	=60
2.r	4d	4D	4D	2.r	2.r	2.r	2.r	2.r	2.r	8gg	[2.b-
.	.	.	.	.	.	.	.	.	.	8ff	.
.	4c	4C	4C	.	.	.	.	.	.	8ff	.
.	.	.	.	.	.	.	.	.	.	8ee-	.
.	4B-	4BB-	4BB-	.	.	.	.	.	.	8ee-	.
.	.	.	.	.	.	.	.	.	.	8dd	.
=61	=61	=61	=61	=61	=61	=61	=61	=61	=61	=61	=61
2r	4e-	4e-	2.r	2.r	2.r	2.r	2.r	2.r	2.r	4cc	2.b-_
.	4e	4e	.	.	.	.	.	.	.	4dd-	.
4bb-	4f	4f	.	.	.	.	.	.	.	4dd	.
=62	=62	=62	=62	=62	=62	=62	=62	=62	=62	=62	=62
8aa	2g-	2g-	2.r	2.r	2.r	2.r	2.r	2.r	2.r	2ee-	4b-]
8bb-	.	.	.	.	.	.	.	.	.	.	.
8ccc	.	.	.	.	.	.	.	.	.	.	4b-
8bb-	.	.	.	.	.	.	.	.	.	.	.
4bb-	4f	4f	.	.	.	.	.	.	.	4dd-	4b-
=63	=63	=63	=63	=63	=63	=63	=63	=63	=63	=63	=63
2r	4e-	4e-	2.r	2.r	2.r	2.r	2.r	2.r	2.r	4cc	[2.b-
.	4e	4e	.	.	.	.	.	.	.	4dd-	.
4bb-	4f	4f	.	.	.	.	.	.	.	4dd	.
=64	=64	=64	=64	=64	=64	=64	=64	=64	=64	=64	=64
8aa	2g-	2g-	2.r	2.r	2.r	2.r	2.r	2.r	2.r	2ee-	4b-]
8bb-	.	.	.	.	.	.	.	.	.	.	.
8ccc	.	.	.	.	.	.	.	.	.	.	4b-
8bb-	.	.	.	.	.	.	.	.	.	.	.
4bb-	4f	4f	.	.	.	.	.	.	.	4dd-	4b-
=65	=65	=65	=65	=65	=65	=65	=65	=65	=65	=65	=65
2.r	2e-	2e-	2.r	2r	2.r	2.r	2.r	2.r	2.r	4cc	2b-
.	.	.	.	.	.	.	.	.	.	4dd-	.
.	4e	4e	.	4b-	.	.	.	.	.	4b-	4g
=66	=66	=66	=66	=66	=66	=66	=66	=66	=66	=66	=66
2.r	4f	4f	4F	2.ff	2.r	2.r	2.r	2.r	2.r	4a	4f
.	2r	2r	2r	.	.	.	.	.	.	4b-	4g
.	.	.	.	.	.	.	.	.	.	4b	4g#
=67	=67	=67	=67	=67	=67	=67	=67	=67	=67	=67	=67
2.r	4f	4F	4F	8ee	2.r	2.r	2.r	2.r	2.r	2cc	2a
.	.	.	.	8ff	.	.	.	.	.	.	.
.	2r	2r	2r	8gg	.	.	.	.	.	.	.
.	.	.	.	8ff	.	.	.	.	.	.	.
.	.	.	.	4ff	.	.	.	.	.	4dd	4b
=68	=68	=68	=68	=68	=68	=68	=68	=68	=68	=68	=68
2.r	4f	4F	4F	8ee	2.r	2.r	2.r	2.r	2.r	2ee-	2cc
.	.	.	.	8ff	.	.	.	.	.	.	.
.	2r	2r	2r	8gg	.	.	.	.	.	.	.
.	.	.	.	8ff	.	.	.	.	.	.	.
.	.	.	.	4ff	.	.	.	.	.	4ee	4cc#
=69	=69	=69	=69	=69	=69	=69	=69	=69	=69	=69	=69
2.r	4f	4F	4F	8ee	2.r	2.r	2.r	2.r	2.r	4ff	4dd
.	.	.	.	8ff	.	.	.	.	.	.	.
.	4r	4r	4r	8gg	.	.	.	.	.	4gg	4ee-
.	.	.	.	8ff	.	.	.	.	.	.	.
.	4cc	4F#	4F#	4ee-	.	.	.	.	.	4aa	4cc
=70	=70	=70	=70	=70	=70	=70	=70	=70	=70	=70	=70
[2.bb-	4b-	4G	4G	2.dd	2.bb-	4G	4G	[2.gg	[2.g	12bb-	12b-
.	.	.	.	.	.	.	.	.	.	12ddd	12dd
.	.	.	.	.	.	.	.	.	.	12ccc	12cc
.	4d	4G	4G	.	.	4G	4G	.	.	12bb-	12b-
.	.	.	.	.	.	.	.	.	.	12ddd	12dd
.	.	.	.	.	.	.	.	.	.	12ccc	12cc
.	4d	4G	4G	.	.	4G	4G	.	.	12bb-	12b-
.	.	.	.	.	.	.	.	.	.	12ddd	12dd
.	.	.	.	.	.	.	.	.	.	12ccc	12cc
=71	=71	=71	=71	=71	=71	=71	=71	=71	=71	=71	=71
2.bb-]	2.f	4D	4D	[2.bb-	2.ff	4D	4D	2.gg]	2.g]	12bb-	12b-
.	.	.	.	.	.	.	.	.	.	12ddd	12dd
.	.	.	.	.	.	.	.	.	.	12ccc	12cc
.	.	4D	4D	.	.	4D	4D	.	.	12bb-	12b-
.	.	.	.	.	.	.	.	.	.	12aa	12a
.	.	.	.	.	.	.	.	.	.	12gg	12g
.	.	4D	4D	.	.	4D	4D	.	.	12ff	12f
.	.	.	.	.	.	.	.	.	.	12ee-	12e-
.	.	.	.	.	.	.	.	.	.	12dd	12d
=72	=72	=72	=72	=72	=72	=72	=72	=72	=72	=72	=72
[2.ccc	4g	4E-	4E-	2.bb-]	2.gg	4E-	4E-	2.ee	2.cc	12cc	4c
.	.	.	.	.	.	.	.	.	.	12ee-	.
.	.	.	.	.	.	.	.	.	.	12dd	.
.	4e-	4E-	4E-	.	.	4E-	4E-	.	.	12cc	4g
.	.	.	.	.	.	.	.	.	.	12ee-	.
.	.	.	.	.	.	.	.	.	.	12dd	.
.	4e-	4E-	4E-	.	.	4E-	4E-	.	.	12cc	4g
.	.	.	.	.	.	.	.	.	.	12ee-	.
.	.	.	.	.	.	.	.	.	.	12dd	.
=73	=73	=73	=73	=73	=73	=73	=73	=73	=73	=73	=73
2.ccc]	4f	4F	4F	2.aa	2.ee-	4F	4F	2.dd	2.dd	12cc	2.a 2.e-
.	.	.	.	.	.	.	.	.	.	12ee-	.
.	.	.	.	.	.	.	.	.	.	12dd	.
.	4f	4F	4F	.	.	4F	4F	.	.	12cc	.
.	.	.	.	.	.	.	.	.	.	12b-	.
.	.	.	.	.	.	.	.	.	.	12a	.
.	4f	4F	4F	.	.	4F	4F	.	.	12g	.
.	.	.	.	.	.	.	.	.	.	12f	.
.	.	.	.	.	.	.	.	.	.	12e-	.
=74	=74	=74	=74	=74	=74	=74	=74	=74	=74	=74	=74
4bb-	12d	12D	12D	4bb-	4dd	12D	12D	4dd	4g	12d	12d
.	12e-	12E-	12E-	.	.	12E-	12E-	.	.	12e-	12e-
.	12f	12F	12F	.	.	12F	12F	.	.	12f	12f
2r	12g	12G	12G	2r	2r	12G	12G	2r	2r	12g	12g
.	12a	12A	12A	.	.	12A	12A	.	.	12a	12a
.	12b-	12B-	12B-	.	.	12B-	12B-	.	.	12b-	12b-
.	12e-	12E-	12E-	.	.	12E-	12E-	.	.	12e-	12e-
.	12g	12G	12G	.	.	12G	12G	.	.	12g	12g
.	12cc	12c	12c	.	.	12c	12c	.	.	12cc	12cc
=75	=75	=75	=75	=75	=75	=75	=75	=75	=75	=75	=75
2.r	12f	12F	12F	2.r	2.r	12F	12F	2.r	2.r	12f	12f
.	12g	12G	12G	.	.	12G	12G	.	.	12g	12g
.	12a	12A	12A	.	.	12A	12A	.	.	12a	12a
.	12b-	12B-	12B-	.	.	12B-	12B-	.	.	12b-	12b-
.	12cc	12c	12c	.	.	12c	12c	.	.	12cc	12cc
.	12dd	12d	12d	.	.	12d	12d	.	.	12dd	12dd
.	12g	12G	12G	.	.	12G	12G	.	.	12g	12g
.	12a	12A	12A	.	.	12A	12A	.	.	12a	12a
.	12b	12B	12B	.	.	12B	12B	.	.	12b	12b
=76	=76	=76	=76	=76	=76	=76	=76	=76	=76	=76	=76
2.r	12cc	12c	12c	2.r	2.r	12c	12c	2.r	2.r	12cc	12cc
.	12dd	12d	12d	.	.	12d	12d	.	.	12dd	12dd
.	12ee-	12e-	12e-	.	.	12e-	12e-	.	.	12ee-	12ee-
.	8a	8A	8A	.	.	8A	8A	.	.	8a	8a
.	8ff	8f	8f	.	.	8f	8f	.	.	8ff	8ff
.	8dd	8d	8d	.	.	8d	8d	.	.	8dd	8dd
.	8b-	8B-	8B-	.	.	8B-	8B-	.	.	8b-	8b-
=77	=77	=77	=77	=77	=77	=77	=77	=77	=77	=77	=77
2.r	8b	8B	8B	2.r	2.r	8B	8B	2.r	2.r	8b	8b
.	8gg	8g	8g	.	.	8g	8g	.	.	8gg	8gg
.	8ee-	8e-	8e-	.	.	8e-	8e-	.	.	8ee-	8ee-
.	8cc	8c	8c	.	.	8c	8c	.	.	8cc	8cc
.	8ff	8f	8f	.	.	8f	8f	.	.	8ff	8ff
.	8a	8A	8A	.	.	8A	8A	.	.	8a	8a
=78	=78	=78	=78	=78	=78	=78	=78	=78	=78	=78	=78
2.r	8dd	8d	8d	2.r	2.r	8d	8d	2.r	2.r	8dd	8dd
.	8b-	8B-	8B-	.	.	8B-	8B-	.	.	8b-	8b-
.	8ee-	8e-	8e-	.	.	8e-	8e-	.	.	8ee-	8ee-
.	8g	8G	8G	.	.	8G	8G	.	.	8g	8g
.	8cc	8c	8c	.	.	8c	8c	.	.	8cc	8cc
.	8a	8A	8A	.	.	8A	8A	.	.	8a	8a
=79	=79	=79	=79	=79	=79	=79	=79	=79	=79	=79	=79
2.r	8dd	8d	8d	2.r	2.r	8d	8d	2.r	2.r	8dd	8dd
.	8f#	8F#	8F#	.	.	8F#	8F#	.	.	8f#	8f#
.	8b-	8B-	8B-	.	.	8B-	8B-	.	.	8b-	8b-
.	8g	8G	8G	.	.	8G	8G	.	.	8g	8g
.	8cc	8c	8c	.	.	8c	8c	.	.	8cc	8cc
.	8e-	8E-	8E-	.	.	8E-	8E-	.	.	8e-	8e-
=80	=80	=80	=80	=80	=80	=80	=80	=80	=80	=80	=80
2.r	8cc	8c	8c	2.r	2.r	8c	8c	2.r	2.r	8cc	8cc
.	8e-	8E-	8E-	.	.	8E-	8E-	.	.	8e-	8e-
.	8cc	8c	8c	.	.	8c	8c	.	.	8cc	8cc
.	8e-	8E-	8E-	.	.	8E-	8E-	.	.	8e-	8e-
.	8cc	8c	8c	.	.	8c	8c	.	.	8cc	8cc
.	8e-	8E-	8E-	.	.	8E-	8E-	.	.	8e-	8e-
=81	=81	=81	=81	=81	=81	=81	=81	=81	=81	=81	=81
2.r	8cc	8c	8c	2.r	2.r	8c	8c	2.r	2.r	8cc	8cc
.	8e-	8E-	8E-	.	.	8E-	8E-	.	.	8e-	8e-
.	4f	4F	4F	.	.	4F	4F	.	.	8b-	8b-
.	.	.	.	.	.	.	.	.	.	8d	8d
.	4f	4F	4F	.	.	4F	4F	.	.	8a	8a
.	.	.	.	.	.	.	.	.	.	8c	8c
=82	=82	=82	=82	=82	=82	=82	=82	=82	=82	=82	=82
4bb-	4B-	4BB-	4BB-	4bb-	4b-	4BB-	4BB-	4gg	4g	4b-	4B-
4bb-	4c-	4C-	4C-	4bb-	4b-	4C-	4C-	4gg	4g	4b-	4c-
4bb-	4c	4C	4C	4bb-	4b-	4C	4C	4gg	4g	4b-	4c
=83	=83	=83	=83	=83	=83	=83	=83	=83	=83	=83	=83
2.bb-	2d-	2D-	2D-	2.bb-	2.b-	2D-	2D-	2.gg	2.g	2.b-	2d-
.	4d	4D	4D	.	.	4D	4D	.	.	.	4d
=84	=84	=84	=84	=84	=84	=84	=84	=84	=84	=84	=84
4bb-	4e-	4E-	4E-	4bb-	4b-	4E-	4E-	4gg	4g	4b-	4e-
4bb-	4e	4E	4E	4bb-	4b-	4E	4E	4gg	4g	4b-	4e
4bb-	4f	4F	4F	4bb-	4b-	4F	4F	4gg	4g	4b-	4f
=85	=85	=85	=85	=85	=85	=85	=85	=85	=85	=85	=85
2bb-	2.g-	2.G-	2.G-	2bb-	2b-	2.G-	2.G-	2.gg	2.g	2b-	2.g-
4ccc	.	.	.	4r	4r	.	.	.	.	4cc	.
=86	=86	=86	=86	=86	=86	=86	=86	=86	=86	=86	=86
4ddd-	2r	2.GG-	2.GG-	2.r	2.r	2.r	2.r	2.gg	2.g	4dd-	2B-
4bb-	.	.	.	.	.	.	.	.	.	4b-	.
8gg-	4B-	.	.	.	.	.	.	.	.	8g-	8e-
8ee-	.	.	.	.	.	.	.	.	.	8e-	8g-
=87	=87	=87	=87	=87	=87	=87	=87	=87	=87	=87	=87
2dd-	2F	2.AA-	2.AA-	2.r	2.r	2.r	2.r	2dd	2dd	2d-	4f
.	.	.	.	.	.	.	.	.	.	.	4d-
4ee-	4G-	.	.	.	.	.	.	4cc	4cc	4e-	4c
=88	=88	=88	=88	=88	=88	=88	=88	=88	=88	=88	=88
4dd-	4F	4D-	4D-	2.r	2.r	2.r	2.r	2.dd	2.dd	4d-	8d-
.	.	.	.	.	.	.	.	.	.	.	8A-
2r	4d-	2r	2r	.	.	.	.	.	.	4a-	8f
.	.	.	.	.	.	.	.	.	.	.	8A-
.	4d-	.	.	.	.	.	.	.	.	4a-	8f
.	.	.	.	.	.	.	.	.	.	.	8A-
=89	=89	=89	=89	=89	=89	=89	=89	=89	=89	=89	=89
2.r	4r	4C	4C	2.r	2.r	2.r	2.r	2.cc	2.cc	2a-	8g-
.	.	.	.	.	.	.	.	.	.	.	8A-
.	4c	2r	2r	.	.	.	.	.	.	.	8e-
.	.	.	.	.	.	.	.	.	.	.	8A-
.	4c	.	.	.	.	.	.	.	.	8b-	8g-
.	.	.	.	.	.	.	.	.	.	8a-	8A-
=90	=90	=90	=90	=90	=90	=90	=90	=90	=90	=90	=90
2.r	4r	4D-	4D-	2.r	2.r	2.r	2.r	2.dd	2.dd	4a-	8f
.	.	.	.	.	.	.	.	.	.	.	8A-
.	4d-	2r	2r	.	.	.	.	.	.	8dd-	8f
.	.	.	.	.	.	.	.	.	.	8cc	8e-
.	4d-	.	.	.	.	.	.	.	.	8dd-	8f
.	.	.	.	.	.	.	.	.	.	8ff	8d-
=91	=91	=91	=91	=91	=91	=91	=91	=91	=91	=91	=91
2.r	4A-	4AA-	4AA-	4r	4r	2.r	2.r	4cc	4cc	4ee-	4c
.	2r	2r	2r	4aa-	4a-	.	.	2r	2r	4cc	2r
.	.	.	.	4aa-	4a-	.	.	.	.	4a-	.
=92	=92	=92	=92	=92	=92	=92	=92	=92	=92	=92	=92
2.r	2.r	2.r	2.r	2aa-	2a-	2.r	2.r	2.r	2.r	2.r	2.r
.	.	.	.	4aa	4a	.	.	.	.	.	.
=93	=93	=93	=93	=93	=93	=93	=93	=93	=93	=93	=93
2.r	4r	4E-	4E-	4bb-	4b-	2.r	2.r	2.r	2.r	4r	8g-
.	.	.	.	.	.	.	.	.	.	.	8B-
.	4e-	2r	2r	2r	2r	.	.	.	.	4b-	8e-
.	.	.	.	.	.	.	.	.	.	.	8B-
.	4e-	.	.	.	.	.	.	.	.	4b-	8g-
.	.	.	.	.	.	.	.	.	.	.	8B-
=94	=94	=94	=94	=94	=94	=94	=94	=94	=94	=94	=94
2.r	4r	4D	4D	2.r	2.r	2.r	2.r	2.r	2.r	2b-	8a-
.	.	.	.	.	.	.	.	.	.	.	8B-
.	4d	2r	2r	.	.	.	.	.	.	.	8f
.	.	.	.	.	.	.	.	.	.	.	8B-
.	4d	.	.	.	.	.	.	.	.	8cc-	8a-
.	.	.	.	.	.	.	.	.	.	8b-	8B-
=95	=95	=95	=95	=95	=95	=95	=95	=95	=95	=95	=95
2.r	4r	4E-	4E-	2.r	2.r	2.r	2.r	2.r	2.r	4b-	8g-
.	.	.	.	.	.	.	.	.	.	.	8B-
.	4e-	2r	2r	.	.	.	.	.	.	8ee-	8g-
.	.	.	.	.	.	.	.	.	.	8dd	8f
.	4e-	.	.	.	.	.	.	.	.	8ee-	8g-
.	.	.	.	.	.	.	.	.	.	8gg-	8e-
=96	=96	=96	=96	=96	=96	=96	=96	=96	=96	=96	=96
2.r	4B-	4BB-	4BB-	4r	4r	2.r	2.r	2.r	2.r	4ff	4d
.	2r	2r	2r	4bb-	4b-	.	.	.	.	4dd	2r
.	.	.	.	4bb-	4b-	.	.	.	.	4b-	.
=97	=97	=97	=97	=97	=97	=97	=97	=97	=97	=97	=97
2.r	2.r	2.r	2.r	2bb-	2b-	2.r	2.r	2.r	2.r	2.r	2.r
.	.	.	.	4bb	4b	.	.	.	.	.	.
=98	=98	=98	=98	=98	=98	=98	=98	=98	=98	=98	=98
2.r	4r	4F	4F	4ccc	4cc	2.r	2.r	2.r	2.r	4r	8a-
.	.	.	.	.	.	.	.	.	.	.	8c
.	4f	2r	2r	2r	2r	.	.	.	.	4cc	8f
.	.	.	.	.	.	.	.	.	.	.	8c
.	4f	.	.	.	.	.	.	.	.	4cc	8a-
.	.	.	.	.	.	.	.	.	.	.	8c
=99	=99	=99	=99	=99	=99	=99	=99	=99	=99	=99	=99
2.r	4r	4E	4E	2.r	2.r	2.r	2.r	2.r	2.r	2cc	8b-
.	.	.	.	.	.	.	.	.	.	.	8c
.	4e	2r	2r	.	.	.	.	.	.	.	8g
.	.	.	.	.	.	.	.	.	.	.	8c
.	4e	.	.	.	.	.	.	.	.	8dd-	8b-
.	.	.	.	.	.	.	.	.	.	8cc	8c
=100	=100	=100	=100	=100	=100	=100	=100	=100	=100	=100	=100
2.r	4f	2F	2F	2.r	2.r	2.r	2.r	2.r	2.r	4cc	4a-
.	4A-	.	.	.	.	.	.	.	.	4aa-	4cc
.	4c	4A-	4A-	.	.	.	.	.	.	8gg	4a-
.	.	.	.	.	.	.	.	.	.	8ff	.
=101	=101	=101	=101	=101	=101	=101	=101	=101	=101	=101	=101
2.r	[2.B-	4B-	4B-	2.r	2.r	2.r	2.r	2.r	2.r	2ee-	2.f
.	.	4c	4c	.	.	.	.	.	.	.	.
.	.	8B-	8B-	.	.	.	.	.	.	4dd	.
.	.	8A-	8A-	.	.	.	.	.	.	.	.
=102	=102	=102	=102	=102	=102	=102	=102	=102	=102	=102	=102
2.r	2B-]	4G	4G	2.r	2.r	2.r	2.r	2.r	2.r	4ee-	2e-
.	.	4E-	4E-	.	.	.	.	.	.	4gg	.
.	4b-	4D	4D	.	.	.	.	.	.	4ff	4f
=103	=103	=103	=103	=103	=103	=103	=103	=103	=103	=103	=103
2.r	4b-	4C	4C	2.r	2.r	2.r	2.r	2.r	2.r	2ee-	4g
.	4a	4F	4F	.	.	.	.	.	.	.	4a
.	4f	4BB-	4BB-	.	.	.	.	.	.	4dd	4b-
=104	=104	=104	=104	=104	=104	=104	=104	=104	=104	=104	=104
2.r	2e-	2E-	2E-	2.r	2.r	2.r	2.r	2.r	2.r	4cc	2.g
.	.	.	.	.	.	.	.	.	.	4dd	.
.	4e	4E	4E	.	.	.	.	.	.	4b-	.
=105	=105	=105	=105	=105	=105	=105	=105	=105	=105	=105	=105
4r	8f	8F	8F	[2.ff	[2.f	8FF	8FF	[2.dd	[2.dd	4a	4f
.	8F	8F	8F	.	.	8F	8F	.	.	.	.
4ccc	8A	8A	8A	.	.	8A	8A	.	.	4ccc	4cc
.	8F	8F	8F	.	.	8F	8F	.	.	.	.
4ccc	8A	8A	8A	.	.	8A	8A	.	.	4ccc	4cc
.	8F	8F	8F	.	.	8F	8F	.	.	.	.
=106	=106	=106	=106	=106	=106	=106	=106	=106	=106	=106	=106
4ccc#	8B-	8B-	8B-	2.ff_	2.f_	8B-	8B-	2.dd_	2.dd_	4ccc#	4cc#
.	8F	8F	8F	.	.	8F	8F	.	.	.	.
4ddd	8B-	8B-	8B-	.	.	8B-	8B-	.	.	4ddd	4dd
.	8F	8F	8F	.	.	8F	8F	.	.	.	.
4bb-	8B-	8B-	8B-	.	.	8B-	8B-	.	.	4bb-	4b-
.	8F	8F	8F	.	.	8F	8F	.	.	.	.
=107	=107	=107	=107	=107	=107	=107	=107	=107	=107	=107	=107
8bb-	8c	8c	8c	4ff]	4f]	8c	8c	2.dd_	2.dd_	8bb-	8b-
8aa	8F	8F	8F	.	.	8F	8F	.	.	8aa	8a
8ff	8c	8c	8c	4aa	4ee-	8c	8c	.	.	8ff	8f
8ee-	8F	8F	8F	.	.	8F	8F	.	.	8ee-	8e-
8cc	8c	8c	8c	4aa	4ee-	8c	8c	.	.	8cc	8c
8a	8F	8F	8F	.	.	8F	8F	.	.	8a	8A
=108	=108	=108	=108	=108	=108	=108	=108	=108	=108	=108	=108
4b-	8d	8d	8d	2bb-	2.dd	8d	8d	2.dd_	2.dd_	4b-	4B-
.	8F	8F	8F	.	.	8F	8F	.	.	.	.
4dd	8d	8d	8d	.	.	8d	8d	.	.	4dd	4d
.	8F	8F	8F	.	.	8F	8F	.	.	.	.
4ff	8d	8d	8d	4ff	.	8d	8d	.	.	4ff	4f
.	8F	8F	8F	.	.	8F	8F	.	.	.	.
=109	=109	=109	=109	=109	=109	=109	=109	=109	=109	=109	=109
4r	8A	8A	8A	2.ee-	2.cc	8A	8A	2.dd_	2.dd_	4r	4r
.	8F	8F	8F	.	.	8F	8F	.	.	.	.
4ccc	8A	8A	8A	.	.	8A	8A	.	.	4ccc	4cc
.	8F	8F	8F	.	.	8F	8F	.	.	.	.
4ccc	8A	8A	8A	.	.	8A	8A	.	.	4ccc	4cc
.	8F	8F	8F	.	.	8F	8F	.	.	.	.
=110	=110	=110	=110	=110	=110	=110	=110	=110	=110	=110	=110
4ccc#	8B-	8B-	8B-	4cc#	4cc#	8B-	8B-	2.dd_	2.dd_	4ccc#	4cc#
.	8F	8F	8F	.	.	8F	8F	.	.	.	.
4ddd	8B-	8B-	8B-	4dd	4dd	8B-	8B-	.	.	4ddd	4dd
.	8F	8F	8F	.	.	8F	8F	.	.	.	.
4bb-	8B-	8B-	8B-	4b-	4b-	8B-	8B-	.	.	4bb-	4b-
.	8F	8F	8F	.	.	8F	8F	.	.	.	.
=111	=111	=111	=111	=111	=111	=111	=111	=111	=111	=111	=111
8bb-	8c	8c	8c	4f	4a	8c	8c	2.dd]	2.dd]	8bb-	8b-
8aa	8F	8F	8F	.	.	8F	8F	.	.	8aa	8a
8ff	8c	8c	8c	4aa	4ee-	8c	8c	.	.	8ff	8f
8ee-	8F	8F	8F	.	.	8F	8F	.	.	8ee-	8e-
8cc	8c	8c	8c	4aa	4ee-	8c	8c	.	.	8cc	8c
8a	8F	8F	8F	.	.	8F	8F	.	.	8a	8A
=112	=112	=112	=112	=112	=112	=112	=112	=112	=112	=112	=112
4b-	8d	8d	8d	[2.bb-	4dd	8d	8d	4gg	4g	4b-	4B-
.	8B-	8B-	8B-	.	.	8B-	8B-	.	.	.	.
4ee-	8g	8G	8G	.	4ee-	8G	8G	4gg	4g	4ee-	4b-
.	8b-	8B-	8B-	.	.	8B-	8B-	.	.	.	.
4dd	8f	8F	8F	.	4dd	8F	8F	4gg	4g	4dd	4b-
.	8b-	8B-	8B-	.	.	8B-	8B-	.	.	.	.
=113	=113	=113	=113	=113	=113	=113	=113	=113	=113	=113	=113
2gg	8e-	8E-	8E-	2bb-]	2gg	8E-	8E-	2gg	2g	2gg	2.b-
.	8g	8G	8G	.	.	8G	8G	.	.	.	.
.	8b-	8B-	8B-	.	.	8B-	8B-	.	.	.	.
.	8ee-	8e-	8e-	.	.	8e-	8e-	.	.	.	.
4ff	8dd	8d	8d	4ff	8ff	8d	8d	4r	4r	4ff	.
.	8d	8D	8D	.	8b-	8D	8D	.	.	.	.
=114	=114	=114	=114	=114	=114	=114	=114	=114	=114	=114	=114
4ee-	4e-	4E-	4E-	4ee-	4cc	4E-	4E-	2.r	2.r	4ee-	4cc
4dd	4f	4F	4F	4dd	4b-	4F	4F	.	.	4dd	4b-
4cc	4f	4F	4F	4cc	4a	4F	4F	.	.	4cc	4a
=115	=115	=115	=115	=115	=115	=115	=115	=115	=115	=115	=115
4b-	12d 12B-	12BB-	12BB-	2.bb-	2.dd	4B-	4B-	2.gg	2.g	12b-	12b-
.	12d 12B-	12BB-	12BB-	.	.	.	.	.	.	12bb-	12bb-
.	12B- 12d	12BB-	12BB-	.	.	.	.	.	.	12aa	12aa
4bb-	12B- 12d	12BB-	12BB-	.	.	4d	4B-	.	.	12gg	12gg
.	12d 12B-	12BB-	12BB-	.	.	.	.	.	.	12ff	12ff
.	12B- 12d	12BB-	12BB-	.	.	.	.	.	.	12ee-	12ee-
4bb-	12d 12B-	12BB-	12BB-	.	.	4d	4B-	.	.	12dd	12dd
.	12d 12B-	12BB-	12BB-	.	.	.	.	.	.	12cc	12cc
.	12B- 12d	12BB-	12BB-	.	.	.	.	.	.	12b-	12b-
=116	=116	=116	=116	=116	=116	=116	=116	=116	=116	=116	=116
2.ccc	12e- 12c	12BB-	12BB-	2.aa	2.ee-	2.e-	2.A	2.dd	2.dd	12a	12a
.	12e- 12c	12BB-	12BB-	.	.	.	.	.	.	12cc	12cc
.	12e- 12c	12BB-	12BB-	.	.	.	.	.	.	12b-	12b-
.	12e- 12c	12BB-	12BB-	.	.	.	.	.	.	12a	12a
.	12c 12e-	12BB-	12BB-	.	.	.	.	.	.	12g	12g
.	12e- 12c	12BB-	12BB-	.	.	.	.	.	.	12f	12f
.	12e- 12c	12BB-	12BB-	.	.	.	.	.	.	12e-	12e-
.	12e- 12c	12BB-	12BB-	.	.	.	.	.	.	12d	12d
.	12c 12e-	12BB-	12BB-	.	.	.	.	.	.	12c	12c
=117	=117	=117	=117	=117	=117	=117	=117	=117	=117	=117	=117
2.bb-	12B- 12d	12BB-	12BB-	2.bb-	2.dd	4d	4B-	2.dd	2.g	12B-	12B-
.	12d 12B-	12BB-	12BB-	.	.	.	.	.	.	12d	12d
.	12d 12B-	12BB-	12BB-	.	.	.	.	.	.	12e-	12e-
.	12B- 12d	12BB-	12BB-	.	.	4d	4B-	.	.	12f	12f
.	12d 12B-	12BB-	12BB-	.	.	.	.	.	.	12g	12g
.	12d 12B-	12BB-	12BB-	.	.	.	.	.	.	12a	12a
.	12B- 12d	12BB-	12BB-	.	.	4d	4B-	.	.	12b-	12b-
.	12d 12B-	12BB-	12BB-	.	.	.	.	.	.	12cc	12cc
.	12d 12B-	12BB-	12BB-	.	.	.	.	.	.	12dd	12dd
=118	=118	=118	=118	=118	=118	=118	=118	=118	=118	=118	=118
2.ccc	12E- 12c	12BB-	12BB-	2.aa	2.ee-	2.e-	2.A	2.dd	2.dd	12ee-	12ee-
.	12c 12E-	12BB-	12BB-	.	.	.	.	.	.	12a	12a
.	12c 12E-	12BB-	12BB-	.	.	.	.	.	.	12b-	12b-
.	12E- 12c	12BB-	12BB-	.	.	.	.	.	.	12cc	12cc
.	12E- 12c	12BB-	12BB-	.	.	.	.	.	.	12dd	12dd
.	12E- 12c	12BB-	12BB-	.	.	.	.	.	.	12ee-	12ee-
.	12E- 12c	12BB-	12BB-	.	.	.	.	.	.	12ff	12ff
.	12E- 12c	12BB-	12BB-	.	.	.	.	.	.	12gg	12gg
.	12E- 12c	12BB-	12BB-	.	.	.	.	.	.	12aa	12aa
=119	=119	=119	=119	=119	=119	=119	=119	=119	=119	=119	=119
4bb-	4B- 4D	4BB-	4BB-	4bb-	4dd	4d	4B-	4dd	4g	4bb-	4bb-
2r	2r	2r	2r	2r	2r	2r	2r	2r	2r	2r	2r
=120	=120	=120	=120	=120	=120	=120	=120	=120	=120	=120	=120
2.r	[2.f	2.c	2.c	2.r	2.r	2.r	2.r	2.r	2.r	12ee-	2.e-
.	.	.	.	.	.	.	.	.	.	12a	.
.	.	.	.	.	.	.	.	.	.	12b-	.
.	.	.	.	.	.	.	.	.	.	12cc	.
.	.	.	.	.	.	.	.	.	.	12dd	.
.	.	.	.	.	.	.	.	.	.	12ee-	.
.	.	.	.	.	.	.	.	.	.	12ff	.
.	.	.	.	.	.	.	.	.	.	12gg	.
.	.	.	.	.	.	.	.	.	.	12aa	.
=121	=121	=121	=121	=121	=121	=121	=121	=121	=121	=121	=121
2.r	4f]	4d	4d	2.r	2.r	2.r	2.r	2.r	2.r	4bb-	4d
.	2r	2r	2r	.	.	.	.	.	.	2r	2r
=122	=122	=122	=122	=122	=122	=122	=122	=122	=122	=122	=122
2.ddd	4G 4d	4G	4G	4bb	4ff	4G	4G	4ee	4e	12bb	4b 4f 4G
.	.	.	.	.	.	.	.	.	.	12ddd	.
.	.	.	.	.	.	.	.	.	.	12ccc	.
.	4G 4d	4G	4G	4bb	4ff	4G	4G	4ee	4e	12bb	4f 4b 4G
.	.	.	.	.	.	.	.	.	.	12aa-	.
.	.	.	.	.	.	.	.	.	.	12gg	.
.	4G 4d	4G	4G	4bb	4ff	4G	4G	4ee	4e	12ff	4G 4b 4f
.	.	.	.	.	.	.	.	.	.	12ee-	.
.	.	.	.	.	.	.	.	.	.	12dd	.
=123	=123	=123	=123	=123	=123	=123	=123	=123	=123	=123	=123
4ccc	4e- 4G	4c	4c	4ccc	4ee-	4c	4c	4ee	4e	4ee-	4G 4cc 4e-
2r	2r	2r	2r	4ee-	4cc	4e-	4c	2r	2r	2r	2r
.	.	.	.	4ee-	4cc	4e-	4c	.	.	.	.
=124	=124	=124	=124	=124	=124	=124	=124	=124	=124	=124	=124
[2.ccc	2.A-	2.A-	2.A-	[2.ee-	[2.cc	[2.e-	[2.c	[2.cc	[2.c	12ee-	12c
.	.	.	.	.	.	.	.	.	.	12cc	12e-
.	.	.	.	.	.	.	.	.	.	12dd	12d
.	.	.	.	.	.	.	.	.	.	12ee-	12c
.	.	.	.	.	.	.	.	.	.	12cc	12e-
.	.	.	.	.	.	.	.	.	.	12dd	12d
.	.	.	.	.	.	.	.	.	.	12ee-	12c
.	.	.	.	.	.	.	.	.	.	12cc	12e-
.	.	.	.	.	.	.	.	.	.	12dd	12d
=125	=125	=125	=125	=125	=125	=125	=125	=125	=125	=125	=125
4ccc]	4G	4G	4G	4ee-]	4cc]	4e-]	4c]	4cc]	4c]	4ee-	4c
2r	2r	2r	2r	4ee-	4cc	4e-	4c	4cc	4c	2r	2r
.	.	.	.	4ee-	4cc	4e-	4c	4cc	4c	.	.
=126	=126	=126	=126	=126	=126	=126	=126	=126	=126	=126	=126
2.ccc	4F#	12F#	12F#	2.ee-	2.cc	4FF#	4FF#	2.cc	2.c	12f#	12f#
.	.	12A	12A	.	.	.	.	.	.	12a	12a
.	.	12c	12c	.	.	.	.	.	.	12cc	12cc
.	4F#	12e-	12e-	.	.	4FF#	4FF#	.	.	12ee-	12ee-
.	.	12d	12d	.	.	.	.	.	.	12dd	12dd
.	.	12c	12c	.	.	.	.	.	.	12cc	12cc
.	4F#	12e-	12e-	.	.	4FF#	4FF#	.	.	12ee-	12ee-
.	.	12d	12d	.	.	.	.	.	.	12dd	12dd
.	.	12c	12c	.	.	.	.	.	.	12cc	12cc
=127	=127	=127	=127	=127	=127	=127	=127	=127	=127	=127	=127
4bb	4G	4G	4G	4dd	4b	4GG	4GG	4ee	4e	4gg 4b	4b 4gg
2r	2r	2r	2r	2r	2r	2r	2r	2r	2r	2r	2r
=128	=128	=128	=128	=128	=128	=128	=128	=128	=128	=128	=128
2.r	2.c	2.c	2.c	2r	2.r	2.r	2.r	2.r	2.r	4e	4c
.	.	.	.	.	.	.	.	.	.	4f	4d
.	.	.	.	4aa	.	.	.	.	.	4f#	4e-
=129	=129	=129	=129	=129	=129	=129	=129	=129	=129	=129	=129
2.r	4B	4B	4B	4.dd	2.r	2.r	2.r	2.r	2.r	2.g	4d
.	4A	4A	4A	.	.	.	.	.	.	.	4c
.	.	.	.	16ee	.	.	.	.	.	.	.
.	.	.	.	16ff#	.	.	.	.	.	.	.
.	4G	4G	4G	4gg	.	.	.	.	.	.	4B
=130	=130	=130	=130	=130	=130	=130	=130	=130	=130	=130	=130
2r	2F	2.F	2.F	2.r	2.r	2.r	2.r	2.r	2.r	4a	4c
.	.	.	.	.	.	.	.	.	.	4b-	4d-
4ddd	4f	.	.	.	.	.	.	.	.	4b	4d
=131	=131	=131	=131	=131	=131	=131	=131	=131	=131	=131	=131
4.gg	4e	4E	4E	2.r	2.r	2.r	2.r	2.r	2.r	2.cc	4g
.	4d	4D	4D	.	.	.	.	.	.	.	4f
16aa	.	.	.	.	.	.	.	.	.	.	.
16bb	.	.	.	.	.	.	.	.	.	.	.
4ccc	4c	4C	4C	.	.	.	.	.	.	.	4e
=132	=132	=132	=132	=132	=132	=132	=132	=132	=132	=132	=132
2.r	2B	2BB	2BB	2r	2.r	2.r	2.r	2.r	2.r	4dd	4f
.	.	.	.	.	.	.	.	.	.	4ee-	4g-
.	4B-	4BB-	4BB-	4ee	.	.	.	.	.	4ee	4g
=133	=133	=133	=133	=133	=133	=133	=133	=133	=133	=133	=133
2.r	4A	4AA	4AA	4ff	2.r	2.r	2.r	2.r	2.r	4ff	4cc
.	4G	4GG	4GG	4gg	.	.	.	.	.	4gg	4b-
.	4F	4FF	4FF	4aa	.	.	.	.	.	4aa	4a
=134	=134	=134	=134	=134	=134	=134	=134	=134	=134	=134	=134
2.r	4G	4EE	4EE	4gg	2.r	2.r	2.r	2.r	2.r	4gg	4cc
.	4G	4BB	4BB	8ff	.	.	.	.	.	8ff	4dd
.	.	.	.	8dd	.	.	.	.	.	8dd	.
.	4G	4C	4C	8ee	.	.	.	.	.	8ee	4cc
.	.	.	.	8cc	.	.	.	.	.	8cc	.
=135	=135	=135	=135	=135	=135	=135	=135	=135	=135	=135	=135
4r	4G	4GG	4GG	4g	4r	2.r	2.r	4r	4r	4g	4g
4g	2r	2r	2r	2r	4gg	.	.	4ee	4e	2r	2r
4g	.	.	.	.	4gg	.	.	4ee	4e	.	.
=136	=136	=136	=136	=136	=136	=136	=136	=136	=136	=136	=136
2.g	2.r	2.r	2.r	4gg	4ee	4g	4e	2.ee	2.e	2.r	2.r
.	.	.	.	8ff	4dd	4f	4d	.	.	.	.
.	.	.	.	8dd	.	.	.	.	.	.	.
.	.	.	.	8ee	4cc	4e	4c	.	.	.	.
.	.	.	.	8cc	.	.	.	.	.	.	.
=137	=137	=137	=137	=137	=137	=137	=137	=137	=137	=137	=137
4g	12G	12GG	12GG	4gg	4b	4d	4B	4ee	4e	12G	12G
.	12B	12BB	12BB	.	.	.	.	.	.	12B	12B
.	12A	12AA	12AA	.	.	.	.	.	.	12A	12A
4g	12G	12GG	12GG	2r	2r	2r	2r	4ee	4e	12G	12G
.	12B	12BB	12BB	.	.	.	.	.	.	12B	12B
.	12A	12AA	12AA	.	.	.	.	.	.	12A	12A
4g	12G	12GG	12GG	.	.	.	.	4ee	4e	12G	12G
.	12B	12BB	12BB	.	.	.	.	.	.	12B	12B
.	12A	12AA	12AA	.	.	.	.	.	.	12A	12A
=138	=138	=138	=138	=138	=138	=138	=138	=138	=138	=138	=138
2.g	4G	4GG	4GG	4gg	4ee-	4g	4e-	2.ee	2.e	4G	4G
.	2r	2r	2r	8ff	4dd	4f	4d	.	.	2r	2r
.	.	.	.	8dd	.	.	.	.	.	.	.
.	.	.	.	8ee-	4cc	4e-	4c	.	.	.	.
.	.	.	.	8cc	.	.	.	.	.	.	.
=139	=139	=139	=139	=139	=139	=139	=139	=139	=139	=139	=139
2g	12G	12GG	12GG	4gg	4b	4d	4B	4ee	4e	12G	12G
.	12B	12BB	12BB	.	.	.	.	.	.	12B	12B
.	12A	12AA	12AA	.	.	.	.	.	.	12A	12A
.	12G	12GG	12GG	2r	2r	2r	2r	4ee	4e	12G	12G
.	12B	12BB	12BB	.	.	.	.	.	.	12B	12B
.	12A	12AA	12AA	.	.	.	.	.	.	12A	12A
4r	12G	12GG	12GG	.	.	.	.	4ee	4e	12G	12G
.	12B	12BB	12BB	.	.	.	.	.	.	12B	12B
.	12A	12AA	12AA	.	.	.	.	.	.	12A	12A
=140	=140	=140	=140	=140	=140	=140	=140	=140	=140	=140	=140
2.r	4G	4GG	4GG	4aa-	4ff	4d	4B	4ee	4e	4G	4G
.	2r	2r	2r	8gg	4ee-	4e-	4c	2r	2r	2r	2r
.	.	.	.	8ee-	.	.	.	.	.	.	.
.	.	.	.	8ff	4dd	4f	4d	.	.	.	.
.	.	.	.	8dd	.	.	.	.	.	.	.
=141	=141	=141	=141	=141	=141	=141	=141	=141	=141	=141	=141
12ee	4b-	4B-	4B-	2.ee	4dd-	4e	4e	2.r	2.r	12ee	4dd-
12gg	.	.	.	.	.	.	.	.	.	12gg	.
12ff	.	.	.	.	.	.	.	.	.	12ff	.
12ee	4a-	4A-	4A-	.	4cc	2r	2r	.	.	12ee	4cc
12gg	.	.	.	.	.	.	.	.	.	12gg	.
12ff	.	.	.	.	.	.	.	.	.	12ff	.
12ee	4g	4G	4G	.	4b-	.	.	.	.	12ee	4b-
12gg	.	.	.	.	.	.	.	.	.	12gg	.
12ff	.	.	.	.	.	.	.	.	.	12ff	.
=142	=142	=142	=142	=142	=142	=142	=142	=142	=142	=142	=142
12ff	4a-	4A-	4A-	4ff	4cc	4A-	4A-	2.r	2.r	12ff	4cc
12cc	.	.	.	.	.	.	.	.	.	12cc	.
12dd	.	.	.	.	.	.	.	.	.	12dd	.
12ee	4g	4G	4G	4gg	4b-	4G	4G	.	.	12ee	4b-
12ff	.	.	.	.	.	.	.	.	.	12ff	.
12gg	.	.	.	.	.	.	.	.	.	12gg	.
12aa-	4f	4F	4F	4aa-	4a-	4F	4F	.	.	12aa-	4a-
12bb-	.	.	.	.	.	.	.	.	.	12bb-	.
12ccc	.	.	.	.	.	.	.	.	.	12ccc	.
=143	=143	=143	=143	=143	=143	=143	=143	=143	=143	=143	=143
4ddd-	12e	12E	12E	4bb-	4g	12E	12E	2.r	2.r	4ddd-	4b-
.	12f	12F	12F	.	.	12F	12F	.	.	.	.
.	12g	12G	12G	.	.	12G	12G	.	.	.	.
4ccc	12a-	12A-	12A-	4aa-	4r	12A-	12A-	.	.	4ccc	4a-
.	12b-	12B-	12B-	.	.	12B-	12B-	.	.	.	.
.	12cc	12c	12c	.	.	12c	12c	.	.	.	.
4bb-	12c	12C	12C	4gg	4cc	12C	12C	.	.	4bb-	4g
.	12d	12D	12D	.	.	12D	12D	.	.	.	.
.	12e	12E	12E	.	.	12E	12E	.	.	.	.
=144	=144	=144	=144	=144	=144	=144	=144	=144	=144	=144	=144
12aa-	4f	4F	4F	4aa-	2.cc	4F	4F	2.r	2.r	12aa-	4a-
12ccc	.	.	.	.	.	.	.	.	.	12ccc	.
12bb-	.	.	.	.	.	.	.	.	.	12bb-	.
12aa-	4g	4G	4G	4bb-	.	4G	4G	.	.	12aa-	4b-
12gg	.	.	.	.	.	.	.	.	.	12gg	.
12ff	.	.	.	.	.	.	.	.	.	12ff	.
12ee-	4a-	4A-	4A-	4ccc	.	4A-	4A-	.	.	12ee-	4cc
12dd	.	.	.	.	.	.	.	.	.	12dd	.
12cc	.	.	.	.	.	.	.	.	.	12cc	.
=145	=145	=145	=145	=145	=145	=145	=145	=145	=145	=145	=145
12b-	4B-	4B-	4B-	4dd	2.b-	4B-	4B-	2.r	2.r	12b-	4d
12aa-	.	.	.	.	.	.	.	.	.	12aa-	.
12gg	.	.	.	.	.	.	.	.	.	12gg	.
12ff	4c	4c	4c	4ee-	.	4c	4c	.	.	12ff	4e-
12ee-	.	.	.	.	.	.	.	.	.	12ee-	.
12dd	.	.	.	.	.	.	.	.	.	12dd	.
12cc	4d	4d	4d	4ff	.	4d	4d	.	.	12cc	4f
12b-	.	.	.	.	.	.	.	.	.	12b-	.
12a-	.	.	.	.	.	.	.	.	.	12a-	.
=146	=146	=146	=146	=146	=146	=146	=146	=146	=146	=146	=146
4g	2e-	2.e-	2.e-	4gg	4b-	4e-	4e-	2.cc	2.c	4g	4B-
4r	.	.	.	4r	4r	4r	4r	.	.	4a-	4c-
4ccc	4g-	.	.	4ccc	4ccc	4g-	4g-	.	.	4a	4c
=147	=147	=147	=147	=147	=147	=147	=147	=147	=147	=147	=147
4.ff	2.f	4d	4d	4.ff	4.ff	2.f	2.f	2g	2G	2.b-	12f
.	.	.	.	.	.	.	.	.	.	.	12g
.	.	.	.	.	.	.	.	.	.	.	12f
.	.	4c	4c	.	.	.	.	.	.	.	12e-
16gg	.	.	.	16gg	16gg	.	.	.	.	.	12f
16aa	.	.	.	16aa	16aa	.	.	.	.	.	12e-
4bb-	.	4B-	4B-	4bb-	4bb-	.	.	4r	4r	.	4d
=148	=148	=148	=148	=148	=148	=148	=148	=148	=148	=148	=148
2r	2r	2.A-	2.A-	2r	2r	2r	2r	2.r	2.r	4cc	4e-
.	.	.	.	.	.	.	.	.	.	4dd-	4f-
4ff	4c-	.	.	4ff	4ff	4c-	4c-	.	.	4dd	4f
=149	=149	=149	=149	=149	=149	=149	=149	=149	=149	=149	=149
4.b-	2.B-	4G	4G	4.b-	4.b-	2.B-	2.B-	2.r	2.r	2.ee-	12b-
.	.	.	.	.	.	.	.	.	.	.	12cc
.	.	.	.	.	.	.	.	.	.	.	12b-
.	.	4F	4F	.	.	.	.	.	.	.	12a-
16cc	.	.	.	16cc	16cc	.	.	.	.	.	12b-
16dd	.	.	.	16dd	16dd	.	.	.	.	.	12a-
4ee-	.	4E-	4E-	4ee-	4ee-	.	.	.	.	.	4g
=150	=150	=150	=150	=150	=150	=150	=150	=150	=150	=150	=150
2r	2r	2D	2D	2r	2r	2r	2r	2.r	2.r	4ff	4a-
.	.	.	.	.	.	.	.	.	.	4gg-	4a
4ee-	4e-	4D-	4D-	4ee-	4ee-	4E-	4E-	.	.	4gg	4b-
=151	=151	=151	=151	=151	=151	=151	=151	=151	=151	=151	=151
4aa-	4e-	4C	4C	4aa-	4aa-	4E-	4E-	2.r	2.r	4aa-	2.ee-
4bb-	4d-	4BB-	4BB-	4bb-	4bb-	4D-	4D-	.	.	4bb-	.
4ccc	8c	4AA-	4AA-	4ccc	4ccc	8C	8C	.	.	4ccc	.
.	8A-	.	.	.	.	8AA-	8AA-	.	.	.	.
=152	=152	=152	=152	=152	=152	=152	=152	=152	=152	=152	=152
2.ddd-	8G	8GG	8GG	2.ddd-	2.bb-	8GG	8GG	[2.cc	[2.c	8ddd-	8ddd-
.	8e-	8E-	8E-	.	.	8E-	8E-	.	.	8ee-	8ee-
.	8B-	8BB-	8BB-	.	.	8BB-	8BB-	.	.	8ee-	8ee-
.	8e-	8E-	8E-	.	.	8E-	8E-	.	.	16dd	16dd
.	.	.	.	.	.	.	.	.	.	16ee-	16ee-
.	8G	8GG	8GG	.	.	8GG	8GG	.	.	8ddd-	8ddd-
.	8e-	8E-	8E-	.	.	8E-	8E-	.	.	8ee-	8ee-
=153	=153	=153	=153	=153	=153	=153	=153	=153	=153	=153	=153
2.ccc	8A-	8AA-	8AA-	2.ccc	2.aa-	8AA-	8AA-	2.cc_	2.c_	8ccc	8ccc
.	8e-	8E-	8E-	.	.	8E-	8E-	.	.	8ee-	8ee-
.	8c	8C	8C	.	.	8C	8C	.	.	8ee-	8ee-
.	8e-	8E-	8E-	.	.	8E-	8E-	.	.	16dd	16dd
.	.	.	.	.	.	.	.	.	.	16ee-	16ee-
.	8A-	8AA-	8AA-	.	.	8AA-	8AA-	.	.	8ccc	8ccc
.	8e-	8E-	8E-	.	.	8E-	8E-	.	.	8ee-	8ee-
=154	=154	=154	=154	=154	=154	=154	=154	=154	=154	=154	=154
2.ddd-	8G	8GG	8GG	2.ddd-	2.bb-	8GG	8GG	2.cc_	2.c_	8ddd-	8ddd-
.	8e-	8E-	8E-	.	.	8E-	8E-	.	.	8ee-	8ee-
.	8B-	8BB-	8BB-	.	.	8BB-	8BB-	.	.	8ee-	8ee-
.	8e-	8E-	8E-	.	.	8E-	8E-	.	.	16dd	16dd
.	.	.	.	.	.	.	.	.	.	16ee-	16ee-
.	8G	8GG	8GG	.	.	8GG	8GG	.	.	8ddd-	8ddd-
.	8e-	8E-	8E-	.	.	8E-	8E-	.	.	8ee-	8ee-
=155	=155	=155	=155	=155	=155	=155	=155	=155	=155	=155	=155
2.ccc	8A-	8AA-	8AA-	2.ccc	2.aa-	8AA-	8AA-	2.cc]	2.c]	8ccc	8ccc
.	8e-	8E-	8E-	.	.	8E-	8E-	.	.	8ee-	8ee-
.	8c	8C	8C	.	.	8C	8C	.	.	8ee-	8ee-
.	8e-	8E-	8E-	.	.	8E-	8E-	.	.	16dd	16dd
.	.	.	.	.	.	.	.	.	.	16ee-	16ee-
.	8A-	8AA-	8AA-	.	.	8AA-	8AA-	.	.	8ccc	8ccc
.	8e-	8E-	8E-	.	.	8E-	8E-	.	.	8ee-	8ee-
=156	=156	=156	=156	=156	=156	=156	=156	=156	=156	=156	=156
2.bb-	8e	8E	8E	2.bb-	2.gg	8E	8E	2.r	2.r	8bb-	8bb-
.	8cc	8c	8c	.	.	8c	8c	.	.	8cc	8cc
.	8g	8G	8G	.	.	8G	8G	.	.	8cc	8cc
.	8cc	8c	8c	.	.	8c	8c	.	.	16b	16b
.	.	.	.	.	.	.	.	.	.	16cc	16cc
.	8e	8E	8E	.	.	8E	8E	.	.	8bb-	8bb-
.	8cc	8c	8c	.	.	8c	8c	.	.	8cc	8cc
=157	=157	=157	=157	=157	=157	=157	=157	=157	=157	=157	=157
2.aa-	8f	8F	8F	2.aa-	2.ff	8F	8F	2.r	2.r	8aa-	8aa-
.	8cc	8c	8c	.	.	8c	8c	.	.	8cc	8cc
.	8a-	8A-	8A-	.	.	8A-	8A-	.	.	8cc	8cc
.	8cc	8c	8c	.	.	8c	8c	.	.	16b	16b
.	.	.	.	.	.	.	.	.	.	16cc	16cc
.	8f	8F	8F	.	.	8F	8F	.	.	8aa-	8aa-
.	8cc	8c	8c	.	.	8c	8c	.	.	8cc	8cc
=158	=158	=158	=158	=158	=158	=158	=158	=158	=158	=158	=158
2.bb	8d-	8D-	8D-	2.bb	2.b	8D-	8D-	2.r	2.r	8aa-	8aa-
.	8f	8F	8F	.	.	8F	8F	.	.	8ff	8ff
.	8d-	8D-	8D-	.	.	8D-	8D-	.	.	8ff	8ff
.	8f	8F	8F	.	.	8F	8F	.	.	16ee	16ee
.	.	.	.	.	.	.	.	.	.	16ff	16ff
.	8d-	8D-	8D-	.	.	8D-	8D-	.	.	8aa-	8aa-
.	8f	8F	8F	.	.	8F	8F	.	.	8ff	8ff
=159	=159	=159	=159	=159	=159	=159	=159	=159	=159	=159	=159
4ccc	8c	8C	8C	4ccc	4cc	8C	8C	2.r	2.r	8ee	8ee
.	8cc	8c	8c	.	.	8c	8c	.	.	8cc	8cc
2r	8cc	8c	8c	2r	2r	8c	8c	.	.	8cc	8cc
.	16b	16B	16B	.	.	16B	16B	.	.	16b	16b
.	16cc	16c	16c	.	.	16c	16c	.	.	16cc	16cc
.	8dd-	8d-	8d-	.	.	8d-	8d-	.	.	8dd-	8dd-
.	8b-	8B-	8B-	.	.	8B-	8B-	.	.	8b-	8b-
=160	=160	=160	=160	=160	=160	=160	=160	=160	=160	=160	=160
2.r	8g	8G	8G	2.r	2.r	8G	8G	2.r	2.r	8g	8g
.	8g	8G	8G	.	.	8G	8G	.	.	8g	8g
.	8g	8G	8G	.	.	8G	8G	.	.	8g	8g
.	16f	16F	16F	.	.	16F	16F	.	.	16f	16f
.	16g	16G	16G	.	.	16G	16G	.	.	16g	16g
.	8b-	8B-	8B-	.	.	8B-	8B-	.	.	8b-	8b-
.	8g	8G	8G	.	.	8G	8G	.	.	8g	8g
=161	=161	=161	=161	=161	=161	=161	=161	=161	=161	=161	=161
2.r	8e	8E	8E	2.r	2.r	8E	8E	2.r	2.r	8e	8e
.	8e	8E	8E	.	.	8E	8E	.	.	8e	8e
.	8e	8E	8E	.	.	8E	8E	.	.	8e	8e
.	16d	16D	16D	.	.	16D	16D	.	.	16d	16d
.	16e	16E	16E	.	.	16E	16E	.	.	16e	16e
.	8g	8G	8G	.	.	8G	8G	.	.	8g	8g
.	8B-	8BB-	8BB-	.	.	8BB-	8BB-	.	.	8B-	8B-
=162	=162	=162	=162	=162	=162	=162	=162	=162	=162	=162	=162
2.r	8A-	8AA-	8AA-	2.r	2.r	8AA-	8AA-	2.r	2.r	8A-	8A-
.	8c	8C	8C	.	.	8C	8C	.	.	8c	8c
.	8e	8E	8E	.	.	8E	8E	.	.	8e	8e
.	8f	8F	8F	.	.	8F	8F	.	.	8f	8f
.	8A	8AA	8AA	.	.	8AA	8AA	.	.	8A	8A
.	8e-	8E-	8E-	.	.	8E-	8E-	.	.	8e-	8e-
=163	=163	=163	=163	=163	=163	=163	=163	=163	=163	=163	=163
2.r	8B-	8BB-	8BB-	2.r	2.r	8BB-	8BB-	2.r	2.r	8B-	8B-
.	8d-	8D-	8D-	.	.	8D-	8D-	.	.	8d-	8d-
.	8B	8BB	8BB	.	.	8BB	8BB	.	.	8B	8B
.	8g	8G	8G	.	.	8G	8G	.	.	8g	8g
.	8c	8C	8C	.	.	8C	8C	.	.	8c	8c
.	8e-	8E-	8E-	.	.	8E-	8E-	.	.	8e-	8e-
=164	=164	=164	=164	=164	=164	=164	=164	=164	=164	=164	=164
2.r	8c	8C	8C	2.r	2.r	8C	8C	2.r	2.r	8c	8c
.	8a-	8A-	8A-	.	.	8A-	8A-	.	.	8a-	8a-
.	8d-	8D-	8D-	.	.	8D-	8D-	.	.	8d-	8d-
.	8f	8F	8F	.	.	8F	8F	.	.	8f	8f
.	8d	8D	8D	.	.	8D	8D	.	.	8d	8d
.	8b-	8B-	8B-	.	.	8B-	8B-	.	.	8b-	8b-
=165	=165	=165	=165	=165	=165	=165	=165	=165	=165	=165	=165
2.r	8e-	8E-	8E-	2.r	2.r	8E-	8E-	2.r	2.r	8e-	8e-
.	8g	8G	8G	.	.	8G	8G	.	.	8g	8g
.	8e	8E	8E	.	.	8E	8E	.	.	8e	8e
.	8cc	8c	8c	.	.	8c	8c	.	.	8cc	8cc
.	8f	8F	8F	.	.	8F	8F	.	.	8f	8f
.	8a-	8A-	8A-	.	.	8A-	8A-	.	.	8a-	8a-
=166	=166	=166	=166	=166	=166	=166	=166	=166	=166	=166	=166
2.r	8f	8F	8F	2.r	2.r	8F	8F	2.r	2.r	8f	8f
.	8dd-	8d-	8d-	.	.	8d-	8d-	.	.	8dd-	8dd-
.	8f	8F	8F	.	.	8F	8F	.	.	8f	8f
.	8dd-	8d-	8d-	.	.	8d-	8d-	.	.	8dd-	8dd-
.	8f	8F	8F	.	.	8F	8F	.	.	8f	8f
.	8dd-	8d-	8d-	.	.	8d-	8d-	.	.	8dd-	8dd-
=167	=167	=167	=167	=167	=167	=167	=167	=167	=167	=167	=167
2.r	8f	8F	8F	2.r	2.r	8F	8F	2.r	2.r	8f	8f
.	8dd-	8d-	8d-	.	.	8d-	8d-	.	.	8dd-	8dd-
.	8f	8F	8F	.	.	8F	8F	.	.	8f	8f
.	8dd-	8d-	8d-	.	.	8d-	8d-	.	.	8dd-	8dd-
.	8f	8F	8F	.	.	8F	8F	.	.	8f	8f
.	8dd-	8d-	8d-	.	.	8d-	8d-	.	.	8dd-	8dd-
=168	=168	=168	=168	=168	=168	=168	=168	=168	=168	=168	=168
2.r	4f	4F	4F	[2.ff	[2.a-	[2.d-	[2.d-	2.r	2.r	8f	8f
.	.	.	.	.	.	.	.	.	.	8dd-	8dd-
.	2r	2r	2r	.	.	.	.	.	.	8f	8f
.	.	.	.	.	.	.	.	.	.	8dd-	8dd-
.	.	.	.	.	.	.	.	.	.	8f	8f
.	.	.	.	.	.	.	.	.	.	8dd-	8dd-
=169	=169	=169	=169	=169	=169	=169	=169	=169	=169	=169	=169
2.r	2.r	2.r	2.r	2.ff_	2.a-_	2.d-_	2.d-_	2.r	2.r	8f	8f
.	.	.	.	.	.	.	.	.	.	8dd-	8dd-
.	.	.	.	.	.	.	.	.	.	8f	8f
.	.	.	.	.	.	.	.	.	.	8dd-	8dd-
.	.	.	.	.	.	.	.	.	.	8f	8f
.	.	.	.	.	.	.	.	.	.	8dd-	8dd-
=170	=170	=170	=170	=170	=170	=170	=170	=170	=170	=170	=170
[2.ccc-	2.r	2.r	2.r	2.ff_	2.a-_	2.d-_	2.d-_	2.r	2.r	8f	8f
.	.	.	.	.	.	.	.	.	.	8dd-	8dd-
.	.	.	.	.	.	.	.	.	.	8f	8f
.	.	.	.	.	.	.	.	.	.	8dd-	8dd-
.	.	.	.	.	.	.	.	.	.	8f	8f
.	.	.	.	.	.	.	.	.	.	8dd-	8dd-
=171	=171	=171	=171	=171	=171	=171	=171	=171	=171	=171	=171
2.ccc-]	2.r	2.r	2.r	2.ff]	2.a-]	2.d-]	2.d-]	2.r	2.r	8f	8f
.	.	.	.	.	.	.	.	.	.	8dd-	8dd-
.	.	.	.	.	.	.	.	.	.	8f	8f
.	.	.	.	.	.	.	.	.	.	8dd-	8dd-
.	.	.	.	.	.	.	.	.	.	8f	8f
.	.	.	.	.	.	.	.	.	.	8dd-	8dd-
=172	=172	=172	=172	=172	=172	=172	=172	=172	=172	=172	=172
4bb-	2.g-	2.r	2.r	4gg-	4b-	4G-	4G-	2.r	2.r	8b-	8g-
.	.	.	.	.	.	.	.	.	.	8dd-	8b-
8bb-	.	.	.	2r	2r	2r	2r	.	.	8b-	8g-
8aa-	.	.	.	.	.	.	.	.	.	8dd-	8b-
8bb-	.	.	.	.	.	.	.	.	.	8b-	8g-
8ddd-	.	.	.	.	.	.	.	.	.	8dd-	8b-
=173	=173	=173	=173	=173	=173	=173	=173	=173	=173	=173	=173
2.ccc-	2.f	2.r	2.r	2.r	2.r	4F	4F	2.r	2.r	8cc-	8a-
.	.	.	.	.	.	.	.	.	.	8dd-	8b-
.	.	.	.	.	.	2r	2r	.	.	8cc-	8a-
.	.	.	.	.	.	.	.	.	.	8dd-	8b-
.	.	.	.	.	.	.	.	.	.	8cc-	8a-
.	.	.	.	.	.	.	.	.	.	8dd-	8b-
=174	=174	=174	=174	=174	=174	=174	=174	=174	=174	=174	=174
4bb-	2.g-	2.r	2.r	2.r	2.r	4G-	4G-	2.r	2.r	8b-	8g-
.	.	.	.	.	.	.	.	.	.	8dd-	8b-
8bb-	.	.	.	.	.	2r	2r	.	.	8b-	8g-
8aa-	.	.	.	.	.	.	.	.	.	8dd-	8b-
8bb-	.	.	.	.	.	.	.	.	.	8b-	8g-
8ddd-	.	.	.	.	.	.	.	.	.	8dd-	8b-
=175	=175	=175	=175	=175	=175	=175	=175	=175	=175	=175	=175
2.aa-	2.d-	2.r	2.r	2.r	2.r	4d-	4d-	2.r	2.r	8a-	8f
.	.	.	.	.	.	.	.	.	.	8dd-	8a-
.	.	.	.	.	.	2r	2r	.	.	8a-	8f
.	.	.	.	.	.	.	.	.	.	8dd-	8a-
.	.	.	.	.	.	.	.	.	.	8a-	8f
.	.	.	.	.	.	.	.	.	.	8dd-	8a-
=176	=176	=176	=176	=176	=176	=176	=176	=176	=176	=176	=176
4gg	[2.e-	4E-	4E-	2.r	2.r	2.r	2.r	2.r	2.r	8b-	8g
.	.	.	.	.	.	.	.	.	.	8dd-	8b-
8gg	.	2r	2r	.	.	.	.	.	.	8b-	8g
8ff	.	.	.	.	.	.	.	.	.	8dd-	8b-
8gg	.	.	.	.	.	.	.	.	.	8b-	8g
8bb-	.	.	.	.	.	.	.	.	.	8dd-	8b-
=177	=177	=177	=177	=177	=177	=177	=177	=177	=177	=177	=177
2.aa-	2.e-_	4E-	4E-	2.r	2.r	2.r	2.r	2.r	2.r	8cc	8a-
.	.	.	.	.	.	.	.	.	.	8a-	8e-
.	.	2r	2r	.	.	.	.	.	.	8cc	8a-
.	.	.	.	.	.	.	.	.	.	8a-	8e-
.	.	.	.	.	.	.	.	.	.	8cc	8a-
.	.	.	.	.	.	.	.	.	.	8a-	8e-
=178	=178	=178	=178	=178	=178	=178	=178	=178	=178	=178	=178
4bb-	2.e-]	4E-	4E-	2.r	2.r	2.r	2.r	2.r	2.r	8b-	8g
.	.	.	.	.	.	.	.	.	.	8dd-	8b-
8bb-	.	2r	2r	.	.	.	.	.	.	8b-	8g
8aa-	.	.	.	.	.	.	.	.	.	8dd-	8b-
8bb-	.	.	.	.	.	.	.	.	.	8b-	8g
8ddd-	.	.	.	.	.	.	.	.	.	8dd-	8b-
=179	=179	=179	=179	=179	=179	=179	=179	=179	=179	=179	=179
2.ccc	2.A-	4A-	4A-	2.r	2.r	2.r	2.r	2.r	2.r	8cc	8a-
.	.	.	.	.	.	.	.	.	.	8a-	8e-
.	.	2r	2r	.	.	.	.	.	.	8cc	8a-
.	.	.	.	.	.	.	.	.	.	8a-	8e-
.	.	.	.	.	.	.	.	.	.	8cc	8a-
.	.	.	.	.	.	.	.	.	.	8a-	8e-
=180	=180	=180	=180	=180	=180	=180	=180	=180	=180	=180	=180
4ff	12d	4A-	4A-	4dd	4b-	4A-	4A-	4dd	4g	12dd	4f 4b-
.	12f	.	.	.	.	.	.	.	.	12ff	.
.	12e-	.	.	.	.	.	.	.	.	12ee-	.
4ff	12d	4A-	4A-	4dd	4b-	4A-	4A-	4dd	4g	12dd	4f 4b-
.	12f	.	.	.	.	.	.	.	.	12ff	.
.	12e-	.	.	.	.	.	.	.	.	12ee-	.
4ff	12d	4A-	4A-	4dd	4b-	4A-	4A-	4dd	4g	12dd	4f 4b-
.	12f	.	.	.	.	.	.	.	.	12ff	.
.	12d	.	.	.	.	.	.	.	.	12dd	.
=181	=181	=181	=181	=181	=181	=181	=181	=181	=181	=181	=181
4gg	12e-	4G	4G	4ee-	4b-	4G	4G	4ee	4cc	12ee-	4e- 4b-
.	12g	.	.	.	.	.	.	.	.	12gg	.
.	12f	.	.	.	.	.	.	.	.	12ff	.
4gg	12e-	4G	4G	4ee-	4b-	4G	4G	4ee	4cc	12ee-	4b- 4e-
.	12g	.	.	.	.	.	.	.	.	12gg	.
.	12f	.	.	.	.	.	.	.	.	12ff	.
4gg	12e-	4G	4G	4ee-	4b-	4G	4G	4ee	4cc	12ee-	4e- 4b-
.	12g	.	.	.	.	.	.	.	.	12gg	.
.	12e-	.	.	.	.	.	.	.	.	12ee-	.
=182	=182	=182	=182	=182	=182	=182	=182	=182	=182	=182	=182
4aa-	12f	4D	4D	4ff	4b-	4D	4D	4dd	4g	12ff	4b- 4a-
.	12a-	.	.	.	.	.	.	.	.	12aa-	.
.	12g	.	.	.	.	.	.	.	.	12gg	.
4aa-	12f	4D	4D	4ff	4b-	4D	4D	4dd	4g	12ff	4b- 4a-
.	12a-	.	.	.	.	.	.	.	.	12aa-	.
.	12g	.	.	.	.	.	.	.	.	12gg	.
4aa-	12f	4D	4D	4ff	4b-	4D	4D	4dd	4g	12ff	4a- 4b-
.	12a-	.	.	.	.	.	.	.	.	12aa-	.
.	12f	.	.	.	.	.	.	.	.	12ff	.
=183	=183	=183	=183	=183	=183	=183	=183	=183	=183	=183	=183
4gg	12g	4E-	4E-	4gg	4b-	4E-	4E-	4ee	4cc	12gg	4b- 4g
.	12b-	.	.	.	.	.	.	.	.	12bb-	.
.	12a-	.	.	.	.	.	.	.	.	12aa-	.
4gg	12g	4E-	4E-	4gg	4b-	4E-	4E-	4ee	4cc	12gg	4g 4b-
.	12b-	.	.	.	.	.	.	.	.	12bb-	.
.	12a-	.	.	.	.	.	.	.	.	12aa-	.
4gg	12g	4E-	4E-	4gg	4b-	4E-	4E-	4ee	4cc	12gg	4b- 4g
.	12b-	.	.	.	.	.	.	.	.	12bb-	.
.	12g	.	.	.	.	.	.	.	.	12gg	.
=184	=184	=184	=184	=184	=184	=184	=184	=184	=184	=184	=184
12aa	12a	4C	4C	4aa	4ee-	4C	4C	4cc	4cc	12aa	4a 4e-
12ccc	12cc	.	.	.	.	.	.	.	.	12ccc	.
12bb-	12b-	.	.	.	.	.	.	.	.	12bb-	.
12aa	12a	4C	4C	4aa	4ee-	4C	4C	4cc	4cc	12aa	4a 4e-
12gg	12g	.	.	.	.	.	.	.	.	12gg	.
12ff	12f	.	.	.	.	.	.	.	.	12ff	.
12ee-	12e-	4F	4F	4aa	4ee-	4F	4F	4cc	4cc	12ee-	4a 4e-
12dd	12d	.	.	.	.	.	.	.	.	12dd	.
12cc	12c	.	.	.	.	.	.	.	.	12cc	.
=185	=185	=185	=185	=185	=185	=185	=185	=185	=185	=185	=185
12b-	12B-	4BB-	4BB-	4bb-	4dd	4BB-	4BB-	4dd	4g	12b-	4b- 4d
12dd	12d	.	.	.	.	.	.	.	.	12dd	.
12cc	12c	.	.	.	.	.	.	.	.	12cc	.
12b-	12B-	4BB-	4BB-	4ddd	4ff	4BB-	4BB-	4dd	4g	12b-	4b- 4d
12cc	12c	.	.	.	.	.	.	.	.	12cc	.
12dd	12d	.	.	.	.	.	.	.	.	12dd	.
12ee-	12e-	4BB-	4BB-	4bb-	4dd	4BB-	4BB-	4dd	4g	12ee-	4b- 4d
12ff	12f	.	.	.	.	.	.	.	.	12ff	.
12gg	12g	.	.	.	.	.	.	.	.	12gg	.
=186	=186	=186	=186	=186	=186	=186	=186	=186	=186	=186	=186
12aa	12a	4BB-	4BB-	4aa	4ee-	4BB-	4BB-	4dd	4dd	12aa	4e- 4a
12ccc	12cc	.	.	.	.	.	.	.	.	12ccc	.
12bb-	12b-	.	.	.	.	.	.	.	.	12bb-	.
12aa	12a	4BB-	4BB-	4ccc	4ee-	4BB-	4BB-	4dd	4dd	12aa	4e- 4a
12gg	12g	.	.	.	.	.	.	.	.	12gg	.
12ff	12f	.	.	.	.	.	.	.	.	12ff	.
12ee-	12e-	4BB-	4BB-	4aa	4ee-	4BB-	4BB-	4dd	4dd	12ee-	4e- 4a
12dd	12d	.	.	.	.	.	.	.	.	12dd	.
12cc	12c	.	.	.	.	.	.	.	.	12cc	.
=187	=187	=187	=187	=187	=187	=187	=187	=187	=187	=187	=187
12b-	12B-	12BB-	12BB-	4bb-	4dd	12BB-	12BB-	4dd	4dd	12b-	12b- 12d
12dd	12d	12BB-	12BB-	.	.	12BB-	12BB-	.	.	12dd	12d 12b-
12cc	12c	12BB-	12BB-	.	.	12BB-	12BB-	.	.	12cc	12b- 12d
12b-	12B-	12BB-	12BB-	4ddd	4ff	12BB-	12BB-	4dd	4dd	12b-	12d 12b-
12cc	12c	12BB-	12BB-	.	.	12BB-	12BB-	.	.	12cc	12d 12b-
12dd	12d	12BB-	12BB-	.	.	12BB-	12BB-	.	.	12dd	12b- 12d
12ee-	12e-	12BB-	12BB-	4bb-	4dd	12BB-	12BB-	4dd	4dd	12ee-	12b- 12d
12ff	12f	12BB-	12BB-	.	.	12BB-	12BB-	.	.	12ff	12d 12b-
12gg	12g	12BB-	12BB-	.	.	12BB-	12BB-	.	.	12gg	12b- 12d
=188	=188	=188	=188	=188	=188	=188	=188	=188	=188	=188	=188
12aa	12a	12BB-	12BB-	4aa	4ee-	12BB-	12BB-	4dd	4dd	12aa	12e- 12a
12ccc	12cc	12BB-	12BB-	.	.	12BB-	12BB-	.	.	12ccc	12a 12e-
12bb-	12b-	12BB-	12BB-	.	.	12BB-	12BB-	.	.	12bb-	12a 12e-
12aa	12a	12BB-	12BB-	4ccc	4ee-	12BB-	12BB-	4dd	4dd	12aa	12a 12e-
12gg	12g	12BB-	12BB-	.	.	12BB-	12BB-	.	.	12gg	12a 12e-
12ff	12f	12BB-	12BB-	.	.	12BB-	12BB-	.	.	12ff	12a 12e-
12ee-	12e-	12BB-	12BB-	4aa	4ee-	12BB-	12BB-	4dd	4dd	12ee-	12a 12e-
12dd	12d	12BB-	12BB-	.	.	12BB-	12BB-	.	.	12dd	12a 12e-
12cc	12c	12BB-	12BB-	.	.	12BB-	12BB-	.	.	12cc	12e- 12a
=189	=189	=189	=189	=189	=189	=189	=189	=189	=189	=189	=189
12b-	12B-	12BB-	12BB-	4bb-	4dd	12BB-	12BB-	4dd	4g	12b-	4d 4b-
12dd	12d	12BB-	12BB-	.	.	12BB-	12BB-	.	.	12dd	.
12cc	12c	12BB-	12BB-	.	.	12BB-	12BB-	.	.	12cc	.
12b-	12B-	12BB-	12BB-	4aa-	4dd	12BB-	12BB-	4dd	4g	12b-	4aa- 4d 4b-
12cc	12c	12BB-	12BB-	.	.	12BB-	12BB-	.	.	12cc	.
12dd	12d	12BB-	12BB-	.	.	12BB-	12BB-	.	.	12dd	.
12ee-	12e-	12BB-	12BB-	4aa-	4dd	12BB-	12BB-	4dd	4g	12ee-	4aa- 4d 4b-
12ff	12f	12BB-	12BB-	.	.	12BB-	12BB-	.	.	12ff	.
12gg	12g	12BB-	12BB-	.	.	12BB-	12BB-	.	.	12gg	.
=190	=190	=190	=190	=190	=190	=190	=190	=190	=190	=190	=190
2.aa-	4a-	4BB-	4BB-	4aa-	4dd	4BB-	4BB-	4dd	4g	2.aa-	4d 4aa- 4b-
.	2r	2r	2r	2r	2r	2r	2r	2r	2r	.	2r
=191	=191	=191	=191	=191	=191	=191	=191	=191	=191	=191	=191
4aa	2.r	2.r	2.r	2.r	2.r	2.r	2.r	2.r	2.r	4aa	2.r
2r	.	.	.	.	.	.	.	.	.	2r	.
=192	=192	=192	=192	=192	=192	=192	=192	=192	=192	=192	=192
2.r	4G	4GG	4GG	2.r	2.r	2.r	2.r	2.r	2.r	8r	8r
.	.	.	.	.	.	.	.	.	.	8bb-	8bb-
.	4A-	4AA-	4AA-	.	.	.	.	.	.	8aa-	8aa-
.	.	.	.	.	.	.	.	.	.	8gg	8gg
.	4A	4AA	4AA	.	.	.	.	.	.	8ff	8ff
.	.	.	.	.	.	.	.	.	.	8ee-	8ee-
=193	=193	=193	=193	=193	=193	=193	=193	=193	=193	=193	=193
2.r	2.B-	2.BB-	2.BB-	2.r	2.r	2.r	2.r	2.r	2.r	8dd	8dd
.	.	.	.	.	.	.	.	.	.	8ff	8ff
.	.	.	.	.	.	.	.	.	.	8ee-	8ee-
.	.	.	.	.	.	.	.	.	.	8dd	8dd
.	.	.	.	.	.	.	.	.	.	8cc	8cc
.	.	.	.	.	.	.	.	.	.	8b-	8b-
=194	=194	=194	=194	=194	=194	=194	=194	=194	=194	=194	=194
2.r	4c	4C	4C	2.r	2.r	2.r	2.r	2.r	2.r	8a-	8a-
.	.	.	.	.	.	.	.	.	.	8a	8a
.	4d-	4D-	4D-	.	.	.	.	.	.	8b-	8b-
.	.	.	.	.	.	.	.	.	.	8b	8b
.	4d	4D	4D	.	.	.	.	.	.	8cc	8cc
.	.	.	.	.	.	.	.	.	.	8a-	8a-
=195	=195	=195	=195	=195	=195	=195	=195	=195	=195	=195	=195
2.r	2.e-	2.E-	2.E-	2.r	2.r	2.r	2.r	2.r	2.r	8g	8g
.	.	.	.	.	.	.	.	.	.	8b-	8b-
.	.	.	.	.	.	.	.	.	.	8a-	8a-
.	.	.	.	.	.	.	.	.	.	8g	8g
.	.	.	.	.	.	.	.	.	.	8f	8f
.	.	.	.	.	.	.	.	.	.	8e-	8e-
=196	=196	=196	=196	=196	=196	=196	=196	=196	=196	=196	=196
2.r	4F	4F	4F	2.r	2.r	2.r	2.r	2.r	2.r	8d	8d
.	.	.	.	.	.	.	.	.	.	8e-	8e-
.	4G-	4G-	4G-	.	.	.	.	.	.	8dd	8dd
.	.	.	.	.	.	.	.	.	.	8e-	8e-
.	4G	4G	4G	.	.	.	.	.	.	8d	8d
.	.	.	.	.	.	.	.	.	.	8e-	8e-
=197	=197	=197	=197	=197	=197	=197	=197	=197	=197	=197	=197
2.r	4A-	4A-	4A-	2.r	2.r	2.r	2.r	2.r	2.r	8c	8c
.	.	.	.	.	.	.	.	.	.	8f	8f
.	2A	2A	2A	.	.	.	.	.	.	8cc	8cc
.	.	.	.	.	.	.	.	.	.	8f	8f
.	.	.	.	.	.	.	.	.	.	8e-	8e-
.	.	.	.	.	.	.	.	.	.	8f	8f
=198	=198	=198	=198	=198	=198	=198	=198	=198	=198	=198	=198
2.r	4B-	4B-	4B-	2.r	2.r	2.r	2.r	2.r	2.r	8d	8d
.	.	.	.	.	.	.	.	.	.	8g	8g
.	2B	2B	2B	.	.	.	.	.	.	8dd	8dd
.	.	.	.	.	.	.	.	.	.	8g	8g
.	.	.	.	.	.	.	.	.	.	8f	8f
.	.	.	.	.	.	.	.	.	.	8g	8g
=199	=199	=199	=199	=199	=199	=199	=199	=199	=199	=199	=199
2.r	4c	4c	4c	2.r	2.r	2.r	2.r	2.r	2.r	8e-	8e-
.	.	.	.	.	.	.	.	.	.	8a-	8a-
.	2c	2C	2C	.	.	.	.	.	.	8ee-	8ee-
.	.	.	.	.	.	.	.	.	.	8a-	8a-
.	.	.	.	.	.	.	.	.	.	8g	8g
.	.	.	.	.	.	.	.	.	.	8a-	8a-
=200	=200	=200	=200	=200	=200	=200	=200	=200	=200	=200	=200
2.r	4d	4d	4d	2.r	2.r	2.r	2.r	2.r	2.r	8f	8f
.	.	.	.	.	.	.	.	.	.	8b-	8b-
.	2d	2D	2D	.	.	.	.	.	.	8ff	8ff
.	.	.	.	.	.	.	.	.	.	8b-	8b-
.	.	.	.	.	.	.	.	.	.	8a-	8a-
.	.	.	.	.	.	.	.	.	.	8b-	8b-
=201	=201	=201	=201	=201	=201	=201	=201	=201	=201	=201	=201
2.r	4e-	4E-	4E-	2.r	2.r	2.r	2.r	2.r	2.r	8g	8g
.	.	.	.	.	.	.	.	.	.	8b-	8b-
.	4c	4C	4C	.	.	.	.	.	.	8ee-	8ee-
.	.	.	.	.	.	.	.	.	.	8cc	8cc
.	4f	4F	4F	.	.	.	.	.	.	8b-	8b-
.	.	.	.	.	.	.	.	.	.	8a	8a
=202	=202	=202	=202	=202	=202	=202	=202	=202	=202	=202	=202
4bb-	4B-	2.BB-	[2.BB-	4b-	2.r	2.r	2.r	[2.g	[2.G	4b-	4d
4aa	2r	.	.	4a	.	.	.	.	.	4cc	4e-
4aa-	.	.	.	4a-	.	.	.	.	.	4dd	4f
=203	=203	=203	=203	=203	=203	=203	=203	=203	=203	=203	=203
4gg	4E-	4E-	2.BB-_	4g	2.r	2.r	2.r	2.g_	2.G_	2ee-	2g
2r	4F	4F	.	2r	.	.	.	.	.	.	.
.	4G	4G	.	.	.	.	.	.	.	4dd	4f
=204	=204	=204	=204	=204	=204	=204	=204	=204	=204	=204	=204
4ccc	2A-	2A-	2.BB-_	4cc	2.r	2.r	2.r	2.g_	2.G_	4cc	4e-
4bb	.	.	.	4b	.	.	.	.	.	4dd	4f
4bb-	4G	4G	.	4b-	.	.	.	.	.	4ee-	4g
=205	=205	=205	=205	=205	=205	=205	=205	=205	=205	=205	=205
4aa-	4F	4F	2.BB-]	4a-	2.r	2.r	2.r	2.g]	2.G]	2ff	2a-
2r	4G	4G	.	2r	.	.	.	.	.	.	.
.	4A-	4A-	.	.	.	.	.	.	.	4ee-	4g
=206	=206	=206	=206	=206	=206	=206	=206	=206	=206	=206	=206
4bb-	4B-	4B-	4BB-	4dd	4b-	2.r	2.r	2.r	2.r	4dd	4f
4ccc	4A	4A	4AA	4ee-	4cc	.	.	.	.	4ee-	4g-
4ddd	4A-	4A-	4AA-	4ff	4dd	.	.	.	.	4ff	4d
=207	=207	=207	=207	=207	=207	=207	=207	=207	=207	=207	=207
[2.eee-	4G	4G	4GG	4gg	2ee-	[2.G	[2.G	[2.cc	[2.c	12gg	4e-
.	.	.	.	.	.	.	.	.	.	12bb-	.
.	.	.	.	.	.	.	.	.	.	12aa-	.
.	4G	4GG	4GG	4bb-	.	.	.	.	.	12gg	4ee- 4e-
.	.	.	.	.	.	.	.	.	.	12bb-	.
.	.	.	.	.	.	.	.	.	.	12aa-	.
.	4G	4GG	4GG	4gg	4gg	.	.	.	.	12gg	4ee- 4e-
.	.	.	.	.	.	.	.	.	.	12bb-	.
.	.	.	.	.	.	.	.	.	.	12aa-	.
=208	=208	=208	=208	=208	=208	=208	=208	=208	=208	=208	=208
2.eee-]	4G	4GG	4GG	2.ee-	2.bb-	2.G]	2.G]	2.cc_	2.c_	12gg	2.e- 2.ee-
.	.	.	.	.	.	.	.	.	.	12bb-	.
.	.	.	.	.	.	.	.	.	.	12aa-	.
.	4G	4GG	4GG	.	.	.	.	.	.	12gg	.
.	.	.	.	.	.	.	.	.	.	12ff	.
.	.	.	.	.	.	.	.	.	.	12ee-	.
.	4G	4GG	4GG	.	.	.	.	.	.	12dd	.
.	.	.	.	.	.	.	.	.	.	12cc	.
.	.	.	.	.	.	.	.	.	.	12b-	.
=209	=209	=209	=209	=209	=209	=209	=209	=209	=209	=209	=209
2.ccc	4A-	4AA-	4AA-	4cc	2ee-	[2.A-	[2.A-	2.cc_	2.c_	12cc	4cc 4e-
.	.	.	.	.	.	.	.	.	.	12ee-	.
.	.	.	.	.	.	.	.	.	.	12dd	.
.	4A-	4AA-	4AA-	4ee-	.	.	.	.	.	12cc	4cc 4e-
.	.	.	.	.	.	.	.	.	.	12ee-	.
.	.	.	.	.	.	.	.	.	.	12dd	.
.	4A-	4AA-	4AA-	4cc	4aa-	.	.	.	.	12cc	4cc 4e-
.	.	.	.	.	.	.	.	.	.	12ee-	.
.	.	.	.	.	.	.	.	.	.	12dd	.
=210	=210	=210	=210	=210	=210	=210	=210	=210	=210	=210	=210
4ccc	4A-	4AA-	4AA-	4a-	4ccc	2.A-]	2.A-]	2.cc]	2.c]	12cc	4cc 4e-
.	.	.	.	.	.	.	.	.	.	12ee-	.
.	.	.	.	.	.	.	.	.	.	12dd	.
12ccc	4A-	4AA-	4AA-	2r	12ccc	.	.	.	.	12cc	12e-
12bb-	.	.	.	.	12bb-	.	.	.	.	12b-	12d
12aa-	.	.	.	.	12aa-	.	.	.	.	12a-	12c
12gg	4A-	4AA-	4AA-	.	12gg	.	.	.	.	12g	12B-
12aa-	.	.	.	.	12aa-	.	.	.	.	12a-	12e-
12ff	.	.	.	.	12ff	.	.	.	.	12f	12c
=211	=211	=211	=211	=211	=211	=211	=211	=211	=211	=211	=211
2ee-	4B-	4BB-	4BB-	2ee-	2ee-	2.B-	2.B-	2ee	2cc	2e-	2G
.	4B-	4BB-	4BB-	.	.	.	.	.	.	.	.
4ff	4B-	4BB-	4BB-	4ff	4dd	.	.	4dd	4g	4f	4A-
=212	=212	=212	=212	=212	=212	=212	=212	=212	=212	=212	=212
4ee-	4c	4C	4C	4ee-	4ee-	4c	4c	4cc	4e	4e-	4G
2r	2r	2r	2r	4aa-	4ee-	4c	4c	2r	2r	2r	2r
.	.	.	.	4aa-	4ee-	4c	4c	.	.	.	.
=213	=213	=213	=213	=213	=213	=213	=213	=213	=213	=213	=213
2.r	4d	4D	4D	4aa-	4dd	4B-	4B-	4dd	4g	12B-	4aa- 4b- 4d
.	.	.	.	.	.	.	.	.	.	12c	.
.	.	.	.	.	.	.	.	.	.	12d	.
.	2r	2r	2r	2r	2r	2r	2r	2r	2r	12e-	2r
.	.	.	.	.	.	.	.	.	.	12f	.
.	.	.	.	.	.	.	.	.	.	12g	.
.	.	.	.	.	.	.	.	.	.	12a-	.
.	.	.	.	.	.	.	.	.	.	12b-	.
.	.	.	.	.	.	.	.	.	.	12cc	.
=214	=214	=214	=214	=214	=214	=214	=214	=214	=214	=214	=214
2.r	2.r	2.r	2.r	2.r	2.r	2.r	2.r	2.r	2.r	4dd	2.r
.	.	.	.	.	.	.	.	.	.	2r	.
=215	=215	=215	=215	=215	=215	=215	=215	=215	=215	=215	=215
2.r	4G	4GG	4GG	2r	2.r	2.r	2.r	2.r	2.r	2.ee-	4e-
.	4A-	4AA-	4AA-	.	.	.	.	.	.	.	4f
.	4A	4AA	4AA	4ccc	.	.	.	.	.	.	4g-
=216	=216	=216	=216	=216	=216	=216	=216	=216	=216	=216	=216
2.r	2.B-	2.BB-	2.BB-	4.ff	2.r	2.r	2.r	2.r	2.r	4dd	4f
.	.	.	.	.	.	.	.	.	.	4cc	4e-
.	.	.	.	16gg	.	.	.	.	.	.	.
.	.	.	.	16aa	.	.	.	.	.	.	.
.	.	.	.	4bb-	.	.	.	.	.	4b-	4d
=217	=217	=217	=217	=217	=217	=217	=217	=217	=217	=217	=217
2.r	4C	4C	4C	2r	2.r	2.r	2.r	2.r	2.r	2.a-	4A-
.	4D-	4D-	4D-	.	.	.	.	.	.	.	4B-
.	4D	4D	4D	4ff	.	.	.	.	.	.	4c-
=218	=218	=218	=218	=218	=218	=218	=218	=218	=218	=218	=218
2.r	2.E-	2.E-	2.E-	4.b-	2.r	2.r	2.r	2.r	2.r	4g	4B-
.	.	.	.	.	.	.	.	.	.	4f	4A-
.	.	.	.	16cc	.	.	.	.	.	.	.
.	.	.	.	16dd	.	.	.	.	.	.	.
.	.	.	.	4ee-	.	.	.	.	.	4e-	4G
=219	=219	=219	=219	=219	=219	=219	=219	=219	=219	=219	=219
2r	4F	4F	4F	2.r	2.r	2.r	2.r	2.r	2.r	2d	4A-
.	4G-	4G-	4G-	.	.	.	.	.	.	.	4B-
4dd-	4E-	4G	4G	.	.	.	.	.	.	4d-	4B-
=220	=220	=220	=220	=220	=220	=220	=220	=220	=220	=220	=220
4cc	4E-	4A-	4A-	2.r	2.r	2.r	2.r	2.r	2.r	4c	4c
4ccc	4D	4D	4D	.	.	.	.	.	.	4cc	4a-
4bb-	4E-	4E-	4E-	.	.	.	.	.	.	4b-	4g
=221	=221	=221	=221	=221	=221	=221	=221	=221	=221	=221	=221
4aa-	4A-	4A-	4A-	2.r	2.r	2.r	2.r	2.r	2.r	4a-	4f
4gg	4B-	4B-	4B-	.	.	.	.	.	.	4g	4e-
4ff	4B-	4BB-	4BB-	.	.	.	.	.	.	4f	4d
=222	=222	=222	=222	=222	=222	=222	=222	=222	=222	=222	=222
4ee-	4e-	4E-	4E-	4ee-	4ee-	4E-	4E-	4cc	4c	4e-	4e-
4ee-	4f-	4F-	4F-	4ee-	4ee-	4F-	4F-	4cc	4c	4ee- 4e-	4f-
4ee-	4f	4F	4F	4ee-	4ee-	4F	4F	4cc	4c	4ee- 4e-	4f
=223	=223	=223	=223	=223	=223	=223	=223	=223	=223	=223	=223
2.ee-	2g-	2G-	2G-	2.ee-	2.ee-	2G-	2G-	2.cc	2.c	2.ee- 2.e-	2g-
.	4g	4G	4G	.	.	4G	4G	.	.	.	4g
=224	=224	=224	=224	=224	=224	=224	=224	=224	=224	=224	=224
4ee-	4a-	4A-	4A-	4ee-	4ee-	4A-	4A-	4cc	4c	4ee- 4e-	4a-
4ee-	4a	4A	4A	4ee-	4ee-	4A	4A	4cc	4c	4ee- 4e-	4a
4ee-	4b-	4B-	4B-	4ee-	4ee-	4B-	4B-	4cc	4c	4e- 4ee-	4b-
=225	=225	=225	=225	=225	=225	=225	=225	=225	=225	=225	=225
2ee-	2.cc-	2.c-	2.c-	2ee-	2ee-	2c-	2c-	2cc	2c	2ee-	2.cc-
4r	.	.	.	4r	4r	4r	4r	4r	4r	4ff	.
=226	=226	=226	=226	=226	=226	=226	=226	=226	=226	=226	=226
2.r	2.c-	2.C-	2.C-	2.r	2.r	2.r	2.r	2.r	2.r	4gg-	4e-
.	.	.	.	.	.	.	.	.	.	4ee-	4g-
.	.	.	.	.	.	.	.	.	.	8cc-	8e-
.	.	.	.	.	.	.	.	.	.	8a-	8c-
=227	=227	=227	=227	=227	=227	=227	=227	=227	=227	=227	=227
2.r	4d-	2.D-	2.D-	2.r	2.r	2.r	2.r	2.r	2.r	2g-	2B-
.	4G-	.	.	.	.	.	.	.	.	.	.
.	4F	.	.	.	.	.	.	.	.	4a-	4c-
=228	=228	=228	=228	=228	=228	=228	=228	=228	=228	=228	=228
2.r	4G-	4G-	4G-	2.r	2.r	2.r	2.r	2.r	2.r	4g-	8B-
.	.	.	.	.	.	.	.	.	.	.	8d-
.	4G-	2r	2r	.	.	.	.	.	.	4dd-	8g-
.	.	.	.	.	.	.	.	.	.	.	8d-
.	4G-	.	.	.	.	.	.	.	.	4dd-	8B-
.	.	.	.	.	.	.	.	.	.	.	8d-
=229	=229	=229	=229	=229	=229	=229	=229	=229	=229	=229	=229
2.r	4r	4F	4F	2.r	2.r	2.r	2.r	2.r	2.r	2dd-	8c-
.	.	.	.	.	.	.	.	.	.	.	8d-
.	4F	2r	2r	.	.	.	.	.	.	.	8A-
.	.	.	.	.	.	.	.	.	.	.	8d-
.	4F	.	.	.	.	.	.	.	.	8ee-	8c-
.	.	.	.	.	.	.	.	.	.	8dd-	8d-
=230	=230	=230	=230	=230	=230	=230	=230	=230	=230	=230	=230
2.r	4r	4G-	4G-	2.r	2.r	2.r	2.r	2.r	2.r	4dd-	8B-
.	.	.	.	.	.	.	.	.	.	.	8g-
.	4G-	2r	2r	.	.	.	.	.	.	8gg-	8b-
.	.	.	.	.	.	.	.	.	.	8ff	8a-
.	4G-	.	.	.	.	.	.	.	.	8gg-	8b-
.	.	.	.	.	.	.	.	.	.	8bb-	8g-
=231	=231	=231	=231	=231	=231	=231	=231	=231	=231	=231	=231
2.r	4d-	4D-	4D-	4r	2.r	4r	4r	2.r	2.r	4aa-	4f
.	2r	2r	2r	4dd-	.	4d-	4d-	.	.	4ff	2r
.	.	.	.	4dd-	.	4d-	4d-	.	.	4dd-	.
=232	=232	=232	=232	=232	=232	=232	=232	=232	=232	=232	=232
2.r	2.r	2.r	2.r	2dd-	2.r	2d-	2d-	2.r	2.r	2.r	2.r
.	.	.	.	4dd	.	4d	4d	.	.	.	.
=233	=233	=233	=233	=233	=233	=233	=233	=233	=233	=233	=233
2.r	2.r	2.r	2.r	4ee-	2.r	4e-	4e-	2.r	2.r	4r	8a-
.	.	.	.	.	.	.	.	.	.	.	8cc-
.	.	.	.	2r	.	2r	2r	.	.	4ee-	8a-
.	.	.	.	.	.	.	.	.	.	.	8cc-
.	.	.	.	.	.	.	.	.	.	4ee-	8a-
.	.	.	.	.	.	.	.	.	.	.	8cc-
=234	=234	=234	=234	=234	=234	=234	=234	=234	=234	=234	=234
2.r	2.r	2.r	2.r	2.r	2.r	2.r	2.r	2.r	2.r	2ee-	8g
.	.	.	.	.	.	.	.	.	.	.	8b-
.	.	.	.	.	.	.	.	.	.	.	8dd-
.	.	.	.	.	.	.	.	.	.	.	8b-
.	.	.	.	.	.	.	.	.	.	8ff-	8g
.	.	.	.	.	.	.	.	.	.	8ee-	8b-
=235	=235	=235	=235	=235	=235	=235	=235	=235	=235	=235	=235
2.r	2.r	2.r	2.r	4r	2.r	2.r	2.r	2.r	2.r	4ee-	8a-
.	.	.	.	.	.	.	.	.	.	.	8cc-
.	.	.	.	4ff	.	.	.	.	.	4ee-	8a-
.	.	.	.	.	.	.	.	.	.	.	8cc-
.	.	.	.	4ff	.	.	.	.	.	4ee-	8a-
.	.	.	.	.	.	.	.	.	.	.	8cc-
=236	=236	=236	=236	=236	=236	=236	=236	=236	=236	=236	=236
2.r	2.r	2.r	2.r	2ff	2.r	2.r	2.r	2.r	2.r	2.ee-	8a
.	.	.	.	.	.	.	.	.	.	.	8cc
.	.	.	.	.	.	.	.	.	.	.	8a
.	.	.	.	.	.	.	.	.	.	.	8cc
.	.	.	.	8gg-	.	.	.	.	.	.	8a
.	.	.	.	8ff	.	.	.	.	.	.	8cc
=237	=237	=237	=237	=237	=237	=237	=237	=237	=237	=237	=237
4r	8d	8D	8D	4ff	4r	8D	8D	2.dd	2.g	4dd	4b-
.	8B-	8BB-	8BB-	.	.	8BB-	8BB-	.	.	.	.
4ff	8d	8D	8D	4ff	4bb-	8D	8D	.	.	4ff	4ff
.	8B-	8BB-	8BB-	.	.	8BB-	8BB-	.	.	.	.
4ff	8d	8D	8D	4ff	4bb-	8D	8D	.	.	4ff	4ff
.	8B-	8BB-	8BB-	.	.	8BB-	8BB-	.	.	.	.
=238	=238	=238	=238	=238	=238	=238	=238	=238	=238	=238	=238
4ff#	8e-	8E-	8E-	4ff#	[2.bb-	8E-	8E-	4r	4r	4ff#	4ff#
.	8B-	8BB-	8BB-	.	.	8BB-	8BB-	.	.	.	.
4gg	8e-	8E-	8E-	4gg	.	8E-	8E-	4ee	4cc	4gg	4gg
.	8B-	8BB-	8BB-	.	.	8BB-	8BB-	.	.	.	.
8ee-	8e-	8E-	8E-	4ee-	.	8E-	8E-	4ee	4cc	4ee-	4ee-
8eee-	8B-	8BB-	8BB-	.	.	8BB-	8BB-	.	.	.	.
=239	=239	=239	=239	=239	=239	=239	=239	=239	=239	=239	=239
8eee-	8f	8F	8F	8ee-	2.bb-_	8F	8F	4r	4r	8ee-	8ee-
8ddd	8B-	8BB-	8BB-	8dd	.	8BB-	8BB-	.	.	8dd	8dd
8bb-	8f	8F	8F	8bb-	.	8F	8F	4dd	4g	8b-	8b-
8aa-	8B-	8BB-	8BB-	8aa-	.	8BB-	8BB-	.	.	8a-	8a-
8ff	8f	8F	8F	8ff	.	8F	8F	4dd	4g	8f	8f
8dd	8B-	8BB-	8BB-	8dd	.	8BB-	8BB-	.	.	8d	8d
=240	=240	=240	=240	=240	=240	=240	=240	=240	=240	=240	=240
4ee-	8g	8G	8G	4ee-	2.bb-_	8G	8G	4r	4r	4e-	4e-
.	8B-	8BB-	8BB-	.	.	8BB-	8BB-	.	.	.	.
4gg	8g	8G	8G	4gg	.	8G	8G	4ee	4cc	4g	4g
.	8B-	8BB-	8BB-	.	.	8BB-	8BB-	.	.	.	.
4bb-	8g	8G	8G	4bb-	.	8G	8G	4ee	4cc	4b-	4b-
.	8B-	8BB-	8BB-	.	.	8BB-	8BB-	.	.	.	.
=241	=241	=241	=241	=241	=241	=241	=241	=241	=241	=241	=241
4r	8d	8D	8D	2.aa-	2.bb-_	8D	8D	4r	4r	4r	4r
.	8B-	8BB-	8BB-	.	.	8BB-	8BB-	.	.	.	.
4ff	8d	8D	8D	.	.	8D	8D	4dd	4g	4ff	4ff
.	8B-	8BB-	8BB-	.	.	8BB-	8BB-	.	.	.	.
4ff	8d	8D	8D	.	.	8D	8D	4dd	4g	4ff	4ff
.	8B-	8BB-	8BB-	.	.	8BB-	8BB-	.	.	.	.
=242	=242	=242	=242	=242	=242	=242	=242	=242	=242	=242	=242
4ff#	8e-	8E-	8E-	4ff#	2.bb-]	8E-	8E-	4r	4r	4ff#	4ff#
.	8B-	8BB-	8BB-	.	.	8BB-	8BB-	.	.	.	.
4gg	8e-	8E-	8E-	4gg	.	8E-	8E-	4ee	4cc	4gg	4gg
.	8B-	8BB-	8BB-	.	.	8BB-	8BB-	.	.	.	.
8ee-	8e-	8E-	8E-	4ee-	.	8E-	8E-	4ee	4cc	4ee-	4ee-
8eee-	8B-	8BB-	8BB-	.	.	8BB-	8BB-	.	.	.	.
=243	=243	=243	=243	=243	=243	=243	=243	=243	=243	=243	=243
8eee-	8f	8F	8F	2.dd	2.aa-	8F	8F	4r	4r	8ee-	8ee-
8ddd	8B-	8BB-	8BB-	.	.	8BB-	8BB-	.	.	8dd	8dd
8bb-	8f	8F	8F	.	.	8F	8F	4dd	4g	8b-	8b-
8aa-	8B-	8BB-	8BB-	.	.	8BB-	8BB-	.	.	8a-	8a-
8ff	8f	8F	8F	.	.	8F	8F	4dd	4g	8f	8f
8dd	8B-	8BB-	8BB-	.	.	8BB-	8BB-	.	.	8d	8d
=244	=244	=244	=244	=244	=244	=244	=244	=244	=244	=244	=244
4ee-	8g	8G	8G	4ee-	2.gg	8G	8G	4r	4r	4e-	4e-
.	8B-	8BB-	8BB-	.	.	8BB-	8BB-	.	.	.	.
4gg	8g	8G	8G	4gg	.	8G	8G	4ee	4cc	4g	4g
.	8B-	8BB-	8BB-	.	.	8BB-	8BB-	.	.	.	.
4bb-	8g	8G	8G	4bb-	.	8G	8G	4ee	4cc	4b-	4b-
.	8B-	8BB-	8BB-	.	.	8BB-	8BB-	.	.	.	.
=245	=245	=245	=245	=245	=245	=245	=245	=245	=245	=245	=245
2.r	4d	4D	4D	2.r	2.r	4D	4D	2.r	2.r	4r	8d
.	.	.	.	.	.	.	.	.	.	.	8f
.	2r	2r	2r	.	.	2r	2r	.	.	4ff	8b-
.	.	.	.	.	.	.	.	.	.	.	8d
.	.	.	.	.	.	.	.	.	.	4ff	8f
.	.	.	.	.	.	.	.	.	.	.	8b-
=246	=246	=246	=246	=246	=246	=246	=246	=246	=246	=246	=246
2.r	2.r	2.r	2.r	2.r	2.r	2.r	2.r	2.r	2.r	4ff#	8e-
.	.	.	.	.	.	.	.	.	.	.	8g
.	.	.	.	.	.	.	.	.	.	4gg	8b-
.	.	.	.	.	.	.	.	.	.	.	8e-
.	.	.	.	.	.	.	.	.	.	4ee-	8g
.	.	.	.	.	.	.	.	.	.	.	8b-
=247	=247	=247	=247	=247	=247	=247	=247	=247	=247	=247	=247
2.r	2.r	2.r	2.r	2.r	2.r	2.r	2.r	2.r	2.r	4gg	8f
.	.	.	.	.	.	.	.	.	.	.	8a-
.	.	.	.	.	.	.	.	.	.	4aa-	8b-
.	.	.	.	.	.	.	.	.	.	.	8d
.	.	.	.	.	.	.	.	.	.	4ff	8b-
.	.	.	.	.	.	.	.	.	.	.	8a-
=248	=248	=248	=248	=248	=248	=248	=248	=248	=248	=248	=248
2.r	2.r	2.r	2.r	2.r	2.r	2.r	2.r	2.r	2.r	2aa	8g
.	.	.	.	.	.	.	.	.	.	.	8b-
.	.	.	.	.	.	.	.	.	.	.	8dd
.	.	.	.	.	.	.	.	.	.	.	8ee-
.	.	.	.	.	.	.	.	.	.	8ccc	4r
.	.	.	.	.	.	.	.	.	.	8bb-	.
=249	=249	=249	=249	=249	=249	=249	=249	=249	=249	=249	=249
2.r	2.r	2.r	2.r	2.r	2.r	2.r	2.r	2.r	2.r	4bb-	2r
.	.	.	.	.	.	.	.	.	.	4r	.
.	.	.	.	.	.	.	.	.	.	4bb	4g
=250	=250	=250	=250	=250	=250	=250	=250	=250	=250	=250	=250
2.r	2.r	2.r	2.r	2.r	2.r	2.r	2.r	2.r	2.r	8ddd	4a-
.	.	.	.	.	.	.	.	.	.	8ccc	.
.	.	.	.	.	.	.	.	.	.	8bb-	2r
.	.	.	.	.	.	.	.	.	.	8aa-	.
.	.	.	.	.	.	.	.	.	.	8gg	.
.	.	.	.	.	.	.	.	.	.	8ff	.
=251	=251	=251	=251	=251	=251	=251	=251	=251	=251	=251	=251
2.r	2.r	2.r	2.r	2.r	2.r	2.r	2.r	2.r	2.r	8ee	2.r
.	.	.	.	.	.	.	.	.	.	8ff	.
.	.	.	.	.	.	.	.	.	.	8gg	.
.	.	.	.	.	.	.	.	.	.	8ff	.
.	.	.	.	.	.	.	.	.	.	8aa-	.
.	.	.	.	.	.	.	.	.	.	8ff	.
=252	=252	=252	=252	=252	=252	=252	=252	=252	=252	=252	=252
2.r	2.r	2.r	2.r	2.r	2.r	2.r	2.r	2.r	2.r	2ee-	8B-
.	.	.	.	.	.	.	.	.	.	.	8e-
.	.	.	.	.	.	.	.	.	.	.	8g
.	.	.	.	.	.	.	.	.	.	.	8b-
.	.	.	.	.	.	.	.	.	.	4ff	8a-
.	.	.	.	.	.	.	.	.	.	.	8d
=253	=253	=253	=253	=253	=253	=253	=253	=253	=253	=253	=253
2.gg	2e-	2.e-	2.e-	2.gg	4g	2.e-	2.e-	2.cc	2.c	8ee-	4g
.	.	.	.	.	.	.	.	.	.	8gg	.
.	.	.	.	.	4a-	.	.	.	.	8r	4a-
.	.	.	.	.	.	.	.	.	.	8gg	.
.	4cc	.	.	.	4a	.	.	.	.	8r	4a
.	.	.	.	.	.	.	.	.	.	8gg	.
=254	=254	=254	=254	=254	=254	=254	=254	=254	=254	=254	=254
8gg	4.f	4d	4d	8gg	2.b-	4d	4d	4dd	4g	8gg	2.b-
8ff	.	.	.	8ff	.	.	.	.	.	8ff	.
8ff	.	4c	4c	8ff	.	4c	4c	2r	2r	8ff	.
8ee-	16g	.	.	8ee-	.	.	.	.	.	8ee-	.
.	16a	.	.	.	.	.	.	.	.	.	.
8ee-	4b-	4B-	4B-	8ee-	.	4B-	4B-	.	.	8ee-	.
8dd	.	.	.	8dd	.	.	.	.	.	8dd	.
=255	=255	=255	=255	=255	=255	=255	=255	=255	=255	=255	=255
2.ccc	2r	2.A-	2.A-	2.ccc	4cc	2.A-	2.A-	2.r	2.r	8r	4cc
.	.	.	.	.	.	.	.	.	.	8ccc	.
.	.	.	.	.	4dd-	.	.	.	.	8r	4dd-
.	.	.	.	.	.	.	.	.	.	8ccc	.
.	4f	.	.	.	4dd	.	.	.	.	8r	4dd
.	.	.	.	.	.	.	.	.	.	8ccc	.
=256	=256	=256	=256	=256	=256	=256	=256	=256	=256	=256	=256
8ccc	4.B-	4G	4G	8ccc	2.ee-	4G	4G	2.r	2.r	8ccc	2.ee-
8bb-	.	.	.	8bb-	.	.	.	.	.	8bb-	.
8bb-	.	4F	4F	8bb-	.	4F	4F	.	.	8bb-	.
8aa-	16c	.	.	8aa-	.	.	.	.	.	8aa-	.
.	16d	.	.	.	.	.	.	.	.	.	.
8aa-	4e-	4E-	4E-	8aa-	.	4E-	4E-	.	.	8aa-	.
8gg	.	.	.	8gg	.	.	.	.	.	8gg	.
=257	=257	=257	=257	=257	=257	=257	=257	=257	=257	=257	=257
8ff	8r	8r	8r	8ff	8f	8r	8r	2.r	2.r	8ff	8f
8r	8e-	8E-	8E-	8r	8r	8E-	8E-	.	.	8r	8r
8gg-	8r	8r	8r	8gg-	8g-	8r	8r	.	.	8gg-	8g-
8r	8d	8D	8D	8r	8r	8D	8D	.	.	8r	8r
8gg	8r	8r	8r	8gg	8g	8r	8r	.	.	8gg	8g
8r	8d-	8D-	8D-	8r	8r	8D-	8D-	.	.	8r	8r
=258	=258	=258	=258	=258	=258	=258	=258	=258	=258	=258	=258
8aa-	8r	8r	8r	8aa-	8a-	8r	8r	2.r	2.r	8aa-	8a-
8r	8c	8C	8C	8r	8r	8C	8C	.	.	8r	8r
8bb-	8r	8r	8r	8bb-	8b-	8r	8r	.	.	8bb-	8b-
8r	8B-	8BB-	8BB-	8r	8r	8BB-	8BB-	.	.	8r	8r
8ccc	8r	8r	8r	8ccc	8cc	8r	8r	.	.	8ccc	8cc
8r	8A-	8AA-	8AA-	8r	8r	8AA-	8AA-	.	.	8r	8r
=259	=259	=259	=259	=259	=259	=259	=259	=259	=259	=259	=259
2.bb-	8G	8GG	8GG	2.bb-	4dd	8GG	8GG	[2.cc	[2.c	8bb-	8b-
.	8G	8GG	8GG	.	.	8GG	8GG	.	.	8eee-	8ee-
.	8G	8GG	8GG	.	4ee-	8GG	8GG	.	.	8bb-	8b-
.	8G	8GG	8GG	.	.	8GG	8GG	.	.	8gg	8g
.	8G	8GG	8GG	.	4ee-	8GG	8GG	.	.	8ee-	8e-
.	8G	8GG	8GG	.	.	8GG	8GG	.	.	8b-	8B-
=260	=260	=260	=260	=260	=260	=260	=260	=260	=260	=260	=260
2.ccc	8A-	8AA-	8AA-	2.ccc	[2.ee-	8AA-	8AA-	2.cc]	2.c]	8cc	8c
.	8A-	8AA-	8AA-	.	.	8AA-	8AA-	.	.	8ee-	8e-
.	8A-	8AA-	8AA-	.	.	8AA-	8AA-	.	.	8aa-	8a-
.	8A-	8AA-	8AA-	.	.	8AA-	8AA-	.	.	8ccc	8cc
.	8A-	8AA-	8AA-	.	.	8AA-	8AA-	.	.	8eee-	8ee-
.	8A-	8AA-	8AA-	.	.	8AA-	8AA-	.	.	8ccc	8cc
=261	=261	=261	=261	=261	=261	=261	=261	=261	=261	=261	=261
4bb-	8B-	8BB-	8BB-	4bb-	4ee-]	8BB-	8BB-	4cc	4e	4bb-	4b-
.	8B-	8BB-	8BB-	.	.	8BB-	8BB-	.	.	.	.
4ee-	8B-	8BB-	8BB-	4ee-	4gg	8BB-	8BB-	4ee	4cc	4ee-	4g
.	8B-	8BB-	8BB-	.	.	8BB-	8BB-	.	.	.	.
4dd	8B-	8BB-	8BB-	4dd	4ff	8BB-	8BB-	4dd	4g	4dd	4f
.	8B-	8BB-	8BB-	.	.	8BB-	8BB-	.	.	.	.
=262	=262	=262	=262	=262	=262	=262	=262	=262	=262	=262	=262
2.ee-	12G 12e-	12E-	12E-	2.ee-	4ee-	4E-	4E-	2.cc	2.e	12ee-	12e-
.	12e- 12G	12E-	12E-	.	.	.	.	.	.	12bb-	12bb-
.	12e- 12G	12E-	12E-	.	.	.	.	.	.	12aa-	12aa-
.	12e- 12G	12E-	12E-	.	4gg	4e-	4E-	.	.	12gg	12gg
.	12G 12e-	12E-	12E-	.	.	.	.	.	.	12ff	12ff
.	12e- 12G	12E-	12E-	.	.	.	.	.	.	12ee-	12ee-
.	12G 12e-	12E-	12E-	.	4gg	4e-	4E-	.	.	12dd	12dd
.	12e- 12G	12E-	12E-	.	.	.	.	.	.	12cc	12cc
.	12e- 12G	12E-	12E-	.	.	.	.	.	.	12b-	12b-
=263	=263	=263	=263	=263	=263	=263	=263	=263	=263	=263	=263
2.ff	12d 12A-	12E-	12E-	2.dd	2.aa-	2.d	2.A-	2.dd	2.g	12a-	12a-
.	12d 12A-	12E-	12E-	.	.	.	.	.	.	12g	12g
.	12d 12A-	12E-	12E-	.	.	.	.	.	.	12f	12f
.	12A- 12d	12E-	12E-	.	.	.	.	.	.	12e-	12e-
.	12A- 12d	12E-	12E-	.	.	.	.	.	.	12d	12d
.	12d 12A-	12E-	12E-	.	.	.	.	.	.	12c	12c
.	12A- 12d	12E-	12E-	.	.	.	.	.	.	12B-	12B-
.	12A- 12d	12E-	12E-	.	.	.	.	.	.	12c	12c
.	12d 12A-	12E-	12E-	.	.	.	.	.	.	12A-	12A-
=264	=264	=264	=264	=264	=264	=264	=264	=264	=264	=264	=264
2.gg	12e- 12G	12E-	12E-	2.ee-	4gg	2.e-	2.G	2.ee	2.cc	12G	12G
.	12e- 12G	12E-	12E-	.	.	.	.	.	.	12B-	12B-
.	12G 12e-	12E-	12E-	.	.	.	.	.	.	12c	12c
.	12G 12e-	12E-	12E-	.	4gg	.	.	.	.	12d	12d
.	12G 12e-	12E-	12E-	.	.	.	.	.	.	12e-	12e-
.	12e- 12G	12E-	12E-	.	.	.	.	.	.	12f	12f
.	12G 12e-	12E-	12E-	.	4gg	.	.	.	.	12g	12g
.	12e- 12G	12E-	12E-	.	.	.	.	.	.	12a-	12a-
.	12e- 12G	12E-	12E-	.	.	.	.	.	.	12b-	12b-
=265	=265	=265	=265	=265	=265	=265	=265	=265	=265	=265	=265
2.ddd	12A- 12d	12E-	12E-	2.aa-	2.ff	2.d	2.F	2.dd	2.g	12cc	12cc
.	12A- 12d	12E-	12E-	.	.	.	.	.	.	12f	12f
.	12A- 12d	12E-	12E-	.	.	.	.	.	.	12g	12g
.	12A- 12d	12E-	12E-	.	.	.	.	.	.	12a-	12a-
.	12A- 12d	12E-	12E-	.	.	.	.	.	.	12b-	12b-
.	12A- 12d	12E-	12E-	.	.	.	.	.	.	12cc	12cc
.	12A- 12d	12E-	12E-	.	.	.	.	.	.	12dd	12dd
.	12A- 12d	12E-	12E-	.	.	.	.	.	.	12ee-	12ee-
.	12d 12A-	12E-	12E-	.	.	.	.	.	.	12ff	12ff
=266	=266	=266	=266	=266	=266	=266	=266	=266	=266	=266	=266
4eee-	4G 4e-	4E-	4E-	4gg	4ee-	4e-	4G	4ee	4cc	4gg	4ee-
4bb-	2r	2r	2r	4bb-	4gg	4B-	4G	4gg	4ee	4bb-	4gg
4gg	.	.	.	4gg	4ee-	4G	4E-	4ee	4cc	4gg	4ee-
=267	=267	=267	=267	=267	=267	=267	=267	=267	=267	=267	=267
4ee-	4r	4r	4r	4ee-	4g	4E-	4E-	4cc	4e	4ee-	4g
4ee-	4e- 4G	4E-	4E-	4ee-	4g	4EE-	4EE-	4cc	4e	4e- 4G	4G 4e-
4ee-	4e- 4G	4E-	4E-	4ee-	4g	4EE-	4EE-	4cc	4e	4G 4e-	4e- 4G
=268	=268	=268	=268	=268	=268	=268	=268	=268	=268	=268	=268
4ee-	4G 4e-	4E-	4E-	4ee-	4g	4EE-	4EE-	4cc	4e	4G 4e-	4e- 4G
2r	2r	2r	2r	2r	2r	2r	2r	2r	2r	2r	2r
==	==	==	==	==	==	==	==	==	==	==	==
*-	*-	*-	*-	*-	*-	*-	*-	*-	*-	*-	*-
!!!RWG1: This file contains only pitch and duration data.
!!!RWG2: Transposing instruments are not transposed.
!!!RWG3: Spines may have incompatible meters.
!!!RWG4: Durations of rests and tied notes may be interpreted.
!!!RWG: Key is interpreted using the Humdrum key tool.
!!!AFT: stage1
!!!END: 1997/04/15
!!format changes:
!!content changes:
!!public access: complete
!!!KEY: 2918778733
!!!EMD: Converted from MuseData to Humdrum Dec 16, 2000, by Andreas Kornstaedt using muse2kern.
